; generated by PrusaSlicer 2.5.2+win64 on 2023-10-31 at 01:25:36 UTC

; 

; external perimeters extrusion width = 0.45mm
; perimeters extrusion width = 0.45mm
; infill extrusion width = 0.45mm
; solid infill extrusion width = 0.45mm
; top infill extrusion width = 0.40mm
; support material extrusion width = 0.35mm
; first layer extrusion width = 0.42mm

; external perimeters extrusion width = 0.45mm
; perimeters extrusion width = 0.45mm
; infill extrusion width = 0.45mm
; solid infill extrusion width = 0.45mm
; top infill extrusion width = 0.40mm
; support material extrusion width = 0.35mm
; first layer extrusion width = 0.42mm

; external perimeters extrusion width = 0.45mm
; perimeters extrusion width = 0.45mm
; infill extrusion width = 0.45mm
; solid infill extrusion width = 0.45mm
; top infill extrusion width = 0.40mm
; support material extrusion width = 0.35mm
; first layer extrusion width = 0.42mm

M73 P0 R106
M73 Q0 S108
M107
;TYPE:Custom
M862.3 P "MK3S" ; printer model check
M862.1 P0.4 ; nozzle diameter check
M115 U3.10.0 ; tell printer latest fw version
G90 ; use absolute coordinates
M83 ; extruder relative mode
M104 S215 ; set extruder temp
M140 S60 ; set bed temp
M190 S60 ; wait for bed temp
M109 S215 ; wait for extruder temp
G28 W ; home all without mesh bed level
G80 ; mesh bed leveling
G1 Y-3.0 F1000.0 ; go outside print area
G92 E0.0
G1 X60.0 E9.0 F1000.0 ; intro line
G1 X100.0 E12.5 F1000.0 ; intro line
G92 E0.0
M221 S95

; Don't change E values below. Excessive value can damage the printer.

M907 E538 ; set extruder motor current
G21 ; set units to millimeters
G90 ; use absolute coordinates
M83 ; use relative distances for extrusion
M900 K0.05 ; Filament gcode LA 1.5
M900 K30 ; Filament gcode LA 1.0
M107
;LAYER_CHANGE
;Z:0.2
;HEIGHT:0.2
;BEFORE_LAYER_CHANGE
G92 E0.0
;0.2


M73 Q0 S107
G1 E-.8 F2100
G1 Z.4 F10800
;AFTER_LAYER_CHANGE
;0.2
G1 X58.916 Y34.97
G1 Z.2
G1 E.8 F2100
M204 S1000
;TYPE:Skirt/Brim
;WIDTH:0.42
G1 F1200
G1 X59.974 Y34.109 E.04278
G1 X60.916 Y33.929 E.03008
G1 X187.903 Y35.773 E3.982
G1 X189.204 Y36.184 E.04278
G1 X190.065 Y37.242 E.04278
G1 X190.245 Y38.129 E.02836
G1 X191.422 Y167.981 E4.07161
G1 X191.422 Y170.543 E.08032
G1 X191.03 Y171.85 E.04278
G1 X189.984 Y172.726 E.04278
G1 X189.045 Y172.92 E.03008
G1 X62.045 Y172.92 E3.982
G1 X60.738 Y172.528 E.04278
G1 X59.861 Y171.483 E.04278
G1 X59.671 Y170.66 E.02647
G1 X57.263 Y121.808 E1.53357
G1 X58.505 Y36.271 E2.68223
G1 X58.897 Y35.027 E.0409
; printing object lid.STL id:2 copy 0
;WIPE_START
M73 P0 R105
G1 F8640
G1 X59.974 Y34.109 E-.32671
G1 X60.916 Y33.929 E-.22154
G1 X61.833 Y33.942 E-.21175
;WIPE_END
G1 E-.04 F2100
G1 Z.6 F10800
G1 X61.657 Y37.104
G1 Z.2
G1 E.8 F2100
;TYPE:Perimeter
;WIDTH:0.419999
G1 F1200
G1 X72.082 Y37.256 E.32689
G1 X71.937 Y47.229 E.31274
G1 X71.944 Y47.327 E.00308
G1 X72.06 Y47.589 E.00899
G1 X72.261 Y47.748 E.00803
G1 X72.495 Y47.803 E.00753
G1 X115.107 Y48.422 E1.33621
G1 X114.127 Y115.849 E2.11435
G1 X114.131 Y115.924 E.00236
G1 X114.236 Y116.19 E.00895
G1 X114.42 Y116.352 E.00769
G1 X114.685 Y116.423 E.0086
G1 X135.126 Y116.72 E.64097
G1 X135.223 Y116.713 E.00308
G1 X135.499 Y116.586 E.00953
G1 X135.639 Y116.409 E.00704
G1 X135.699 Y116.162 E.00798
G1 X136.679 Y48.735 E2.11435
G1 X176.013 Y49.3 E1.23344
G1 X176.268 Y49.197 E.0086
G1 X176.447 Y48.979 E.00886
G1 X176.5 Y48.748 E.00743
G1 X176.645 Y38.774 E.31274
G1 X187.07 Y38.926 E.32689
G1 X185.851 Y122.889 E2.63287
G1 X60.438 Y121.067 E3.93263
G1 X61.656 Y37.164 E2.63099
G1 X61.286 Y36.722 F10800
;TYPE:External perimeter
M73 Q0 S106
G1 F1200
G1 X72.465 Y36.884 E.35054
G1 X72.314 Y47.235 E.32456
G1 X72.355 Y47.355 E.00398
M73 P1 R105
G1 X72.5 Y47.426 E.00506
G1 X115.489 Y48.05 E1.34803
G1 X114.504 Y115.854 E2.12618
M73 Q1 S106
G1 X114.567 Y115.997 E.00489
G1 X114.69 Y116.046 E.00415
G1 X135.131 Y116.343 E.64097
G1 X135.256 Y116.298 E.00415
G1 X135.322 Y116.157 E.00489
G1 X136.307 Y48.353 E2.12618
G1 X175.932 Y48.928 E1.24255
G1 X176.063 Y48.878 E.00439
G1 X176.123 Y48.742 E.00466
G1 X176.274 Y38.392 E.32456
G1 X187.452 Y38.554 E.35054
G1 X186.222 Y123.271 E2.65652
G1 X60.055 Y121.439 E3.95628
G1 X61.285 Y36.782 E2.65464
G1 X61.677 Y36.806 F10800
;WIPE_START
G1 F8640
G1 X64.576 Y36.812 E-.76
;WIPE_END
G1 E-.04 F2100
G1 Z.6 F10800
G1 X114.459 Y48.525
G1 Z.2
M73 P1 R104
G1 E.8 F2100
;TYPE:Solid infill
;WIDTH:0.420762
G1 F1200
G1 X114.817 Y48.884 E.01593
G1 X114.809 Y49.411 E.01655
G1 X114.089 Y48.69 E.03203
G1 X113.546 Y48.682 E.01704
G1 X114.802 Y49.937 E.05578
G1 X114.794 Y50.464 E.01655
G1 X113.004 Y48.674 E.07954
G1 X112.462 Y48.666 E.01704
G1 X114.787 Y50.991 E.10329
G1 X114.779 Y51.518 E.01655
G1 X111.92 Y48.658 E.12704
G1 X111.377 Y48.65 E.01704
G1 X114.771 Y52.044 E.15079
G1 X114.764 Y52.571 E.01655
G1 X110.835 Y48.643 E.17454
G1 X110.293 Y48.635 E.01704
G1 X114.756 Y53.098 E.1983
G1 X114.748 Y53.624 E.01655
G1 X109.751 Y48.627 E.22205
G1 X109.208 Y48.619 E.01704
G1 X114.741 Y54.151 E.2458
G1 X114.733 Y54.678 E.01655
G1 X108.666 Y48.611 E.26955
G1 X108.124 Y48.603 E.01704
G1 X114.725 Y55.204 E.2933
G1 X114.718 Y55.731 E.01655
G1 X107.582 Y48.595 E.31706
G1 X107.04 Y48.587 E.01704
G1 X114.71 Y56.258 E.34081
G1 X114.702 Y56.785 E.01655
G1 X106.497 Y48.58 E.36456
G1 X105.955 Y48.572 E.01704
G1 X114.695 Y57.311 E.38831
G1 X114.687 Y57.838 E.01655
G1 X105.413 Y48.564 E.41206
G1 X104.871 Y48.556 E.01704
G1 X114.679 Y58.365 E.43581
G1 X114.672 Y58.891 E.01655
G1 X104.328 Y48.548 E.45957
G1 X103.786 Y48.54 E.01704
G1 X114.664 Y59.418 E.48332
G1 X114.656 Y59.945 E.01655
G1 X103.244 Y48.532 E.50707
G1 X102.702 Y48.524 E.01704
G1 X114.649 Y60.471 E.53082
G1 X114.641 Y60.998 E.01655
G1 X102.16 Y48.517 E.55457
G1 X101.617 Y48.509 E.01704
G1 X114.634 Y61.525 E.57833
G1 X114.626 Y62.052 E.01655
G1 X101.075 Y48.501 E.60208
G1 X100.533 Y48.493 E.01704
G1 X114.618 Y62.578 E.62583
G1 X114.611 Y63.105 E.01655
G1 X99.991 Y48.485 E.64958
G1 X99.448 Y48.477 E.01704
G1 X114.603 Y63.632 E.67333
G1 X114.595 Y64.158 E.01655
G1 X98.906 Y48.469 E.69708
G1 X98.364 Y48.461 E.01704
G1 X114.588 Y64.685 E.72084
G1 X114.58 Y65.212 E.01655
G1 X97.822 Y48.454 E.74459
G1 X97.28 Y48.446 E.01704
G1 X114.572 Y65.738 E.76834
G1 X114.565 Y66.265 E.01655
G1 X96.737 Y48.438 E.79209
G1 X96.195 Y48.43 E.01704
G1 X114.557 Y66.792 E.81584
G1 X114.549 Y67.319 E.01655
G1 X95.653 Y48.422 E.8396
G1 X95.111 Y48.414 E.01704
G1 X114.542 Y67.845 E.86335
G1 X114.534 Y68.372 E.01655
G1 X94.568 Y48.406 E.8871
G1 X94.026 Y48.398 E.01704
M73 Q1 S105
G1 X114.526 Y68.899 E.91085
G1 X114.519 Y69.425 E.01655
G1 X93.484 Y48.391 E.9346
G1 X92.942 Y48.383 E.01704
G1 X114.511 Y69.952 E.95836
G1 X114.503 Y70.479 E.01655
G1 X92.4 Y48.375 E.98211
G1 X91.857 Y48.367 E.01704
G1 X114.496 Y71.005 E1.00586
G1 X114.488 Y71.532 E.01655
M73 P2 R104
G1 X91.315 Y48.359 E1.02961
G1 X90.773 Y48.351 E.01704
M73 Q2 S105
G1 X114.481 Y72.059 E1.05336
G1 X114.473 Y72.586 E.01655
G1 X90.231 Y48.343 E1.07711
G1 X89.688 Y48.335 E.01704
G1 X114.465 Y73.112 E1.10087
G1 X114.458 Y73.639 E.01655
G1 X89.146 Y48.328 E1.12462
G1 X88.604 Y48.32 E.01704
G1 X114.45 Y74.166 E1.14837
G1 X114.442 Y74.692 E.01655
G1 X88.062 Y48.312 E1.17212
G1 X87.52 Y48.304 E.01704
G1 X114.435 Y75.219 E1.19587
G1 X114.427 Y75.746 E.01655
G1 X86.977 Y48.296 E1.21963
G1 X86.435 Y48.288 E.01704
G1 X114.419 Y76.272 E1.24338
G1 X114.412 Y76.799 E.01655
G1 X85.893 Y48.28 E1.26713
G1 X85.351 Y48.272 E.01704
G1 X114.404 Y77.326 E1.29088
G1 X114.396 Y77.853 E.01655
G1 X84.808 Y48.265 E1.31463
G1 X84.266 Y48.257 E.01704
M73 P2 R103
G1 X114.389 Y78.379 E1.33839
G1 X114.381 Y78.906 E.01655
G1 X83.724 Y48.249 E1.36214
G1 X83.182 Y48.241 E.01704
G1 X114.373 Y79.433 E1.38589
G1 X114.366 Y79.959 E.01655
G1 X82.64 Y48.233 E1.40964
G1 X82.097 Y48.225 E.01704
G1 X114.358 Y80.486 E1.43339
G1 X114.351 Y81.013 E.01655
G1 X81.555 Y48.217 E1.45714
G1 X81.013 Y48.209 E.01704
G1 X114.343 Y81.539 E1.4809
G1 X114.335 Y82.066 E.01655
G1 X80.471 Y48.202 E1.50465
G1 X79.928 Y48.194 E.01704
G1 X114.328 Y82.593 E1.5284
G1 X114.32 Y83.12 E.01655
G1 X79.386 Y48.186 E1.55215
G1 X78.844 Y48.178 E.01704
G1 X114.312 Y83.646 E1.5759
G1 X114.305 Y84.173 E.01655
G1 X78.302 Y48.17 E1.59966
G1 X77.76 Y48.162 E.01704
M73 Q2 S104
G1 X114.297 Y84.7 E1.62341
G1 X114.289 Y85.226 E.01655
G1 X77.217 Y48.154 E1.64716
G1 X76.675 Y48.146 E.01704
G1 X114.282 Y85.753 E1.67091
G1 X114.274 Y86.28 E.01655
G1 X76.133 Y48.139 E1.69466
G1 X75.591 Y48.131 E.01704
M73 P3 R103
G1 X114.266 Y86.806 E1.71842
G1 X114.259 Y87.333 E.01655
M73 Q3 S104
G1 X75.048 Y48.123 E1.74217
G1 X74.506 Y48.115 E.01704
G1 X114.251 Y87.86 E1.76592
G1 X114.243 Y88.387 E.01655
G1 X73.964 Y48.107 E1.78967
G1 X73.422 Y48.099 E.01704
G1 X114.236 Y88.913 E1.81342
G1 X114.228 Y89.44 E.01655
G1 X72.707 Y47.919 E1.84483
;WIPE_START
G1 F8640
G1 X75.035 Y50.247 E-.76
;WIPE_END
G1 E-.04 F2100
G1 Z.6 F10800
G1 X71.957 Y38.085
G1 Z.2
G1 E.8 F2100
G1 F1200
G1 X71.401 Y37.529 E.02471
G1 X70.859 Y37.521 E.01704
G1 X71.782 Y38.444 E.04103
G1 X71.774 Y38.971 E.01655
G1 X70.316 Y37.513 E.06478
G1 X69.774 Y37.505 E.01704
G1 X71.767 Y39.498 E.08853
G1 X71.759 Y40.024 E.01655
G1 X69.232 Y37.497 E.11228
G1 X68.69 Y37.489 E.01704
G1 X71.751 Y40.551 E.13603
G1 X71.744 Y41.078 E.01655
G1 X68.148 Y37.482 E.15979
G1 X67.605 Y37.474 E.01704
G1 X71.736 Y41.604 E.18354
G1 X71.728 Y42.131 E.01655
G1 X67.063 Y37.466 E.20729
G1 X66.521 Y37.458 E.01704
M73 P3 R102
G1 X71.721 Y42.658 E.23104
G1 X71.713 Y43.185 E.01655
G1 X65.979 Y37.45 E.25479
G1 X65.436 Y37.442 E.01704
G1 X71.706 Y43.711 E.27855
G1 X71.698 Y44.238 E.01655
G1 X64.894 Y37.434 E.3023
G1 X64.352 Y37.426 E.01704
G1 X71.69 Y44.765 E.32605
G1 X71.683 Y45.291 E.01655
G1 X63.81 Y37.419 E.3498
G1 X63.268 Y37.411 E.01704
G1 X71.675 Y45.818 E.37355
G1 X71.667 Y46.345 E.01655
G1 X62.725 Y37.403 E.3973
G1 X62.183 Y37.395 E.01704
G1 X71.827 Y47.039 E.42849
;WIPE_START
G1 F8640
G1 X69.5 Y44.711 E-.76
;WIPE_END
G1 E-.04 F2100
G1 Z.6 F10800
G1 X61.765 Y37.511
G1 Z.2
G1 E.8 F2100
G1 F1200
G1 X114.22 Y89.967 E2.33069
G1 X114.213 Y90.493 E.01655
G1 X61.924 Y38.205 E2.32325
G1 X61.917 Y38.731 E.01655
G1 X114.205 Y91.02 E2.32325
G1 X114.198 Y91.547 E.01655
G1 X61.909 Y39.258 E2.32325
G1 X61.901 Y39.785 E.01655
G1 X114.19 Y92.073 E2.32325
G1 X114.182 Y92.6 E.01655
G1 X61.894 Y40.312 E2.32325
G1 X61.886 Y40.838 E.01655
G1 X114.175 Y93.127 E2.32325
G1 X114.167 Y93.654 E.01655
M73 Q3 S103
G1 X61.878 Y41.365 E2.32325
G1 X61.871 Y41.892 E.01655
G1 X114.159 Y94.18 E2.32325
G1 X114.152 Y94.707 E.01655
G1 X61.863 Y42.418 E2.32325
G1 X61.855 Y42.945 E.01655
G1 X114.144 Y95.234 E2.32325
G1 X114.136 Y95.76 E.01655
M73 P4 R102
M73 Q4 S103
G1 X61.848 Y43.472 E2.32325
G1 X61.84 Y43.998 E.01655
G1 X114.129 Y96.287 E2.32325
G1 X114.121 Y96.814 E.01655
G1 X61.832 Y44.525 E2.32325
G1 X61.825 Y45.052 E.01655
G1 X114.113 Y97.34 E2.32325
G1 X114.106 Y97.867 E.01655
M73 P4 R101
G1 X61.817 Y45.579 E2.32325
G1 X61.809 Y46.105 E.01655
G1 X114.098 Y98.394 E2.32325
G1 X114.09 Y98.921 E.01655
G1 X61.802 Y46.632 E2.32325
G1 X61.794 Y47.159 E.01655
G1 X114.083 Y99.447 E2.32325
G1 X114.075 Y99.974 E.01655
G1 X61.787 Y47.685 E2.32325
G1 X61.779 Y48.212 E.01655
G1 X114.068 Y100.501 E2.32325
G1 X114.06 Y101.027 E.01655
G1 X61.771 Y48.739 E2.32325
G1 X61.764 Y49.265 E.01655
G1 X114.052 Y101.554 E2.32325
G1 X114.045 Y102.081 E.01655
M73 Q4 S102
G1 X61.756 Y49.792 E2.32325
G1 X61.748 Y50.319 E.01655
G1 X114.037 Y102.607 E2.32325
G1 X114.029 Y103.134 E.01655
G1 X61.741 Y50.846 E2.32325
G1 X61.733 Y51.372 E.01655
G1 X114.022 Y103.661 E2.32325
G1 X114.014 Y104.188 E.01655
G1 X61.725 Y51.899 E2.32325
G1 X61.718 Y52.426 E.01655
M73 P5 R101
G1 X114.006 Y104.714 E2.32325
G1 X113.999 Y105.241 E.01655
M73 Q5 S102
G1 X61.71 Y52.952 E2.32325
G1 X61.702 Y53.479 E.01655
G1 X113.991 Y105.768 E2.32325
G1 X113.983 Y106.294 E.01655
M73 P5 R100
G1 X61.695 Y54.006 E2.32325
G1 X61.687 Y54.532 E.01655
G1 X113.976 Y106.821 E2.32325
G1 X113.968 Y107.348 E.01655
G1 X61.679 Y55.059 E2.32325
G1 X61.672 Y55.586 E.01655
G1 X113.96 Y107.874 E2.32325
G1 X113.953 Y108.401 E.01655
G1 X61.664 Y56.113 E2.32325
G1 X61.656 Y56.639 E.01655
G1 X113.945 Y108.928 E2.32325
G1 X113.937 Y109.455 E.01655
G1 X61.649 Y57.166 E2.32325
G1 X61.641 Y57.693 E.01655
G1 X113.93 Y109.981 E2.32325
G1 X113.922 Y110.508 E.01655
M73 Q5 S101
G1 X61.634 Y58.219 E2.32325
G1 X61.626 Y58.746 E.01655
G1 X113.915 Y111.035 E2.32325
G1 X113.907 Y111.561 E.01655
G1 X61.618 Y59.273 E2.32325
G1 X61.611 Y59.799 E.01655
G1 X113.899 Y112.088 E2.32325
G1 X113.892 Y112.615 E.01655
G1 X61.603 Y60.326 E2.32325
G1 X61.595 Y60.853 E.01655
G1 X113.884 Y113.141 E2.32325
G1 X113.876 Y113.668 E.01655
M73 P6 R100
G1 X61.588 Y61.38 E2.32325
G1 X61.58 Y61.906 E.01655
M73 Q6 S101
G1 X113.869 Y114.195 E2.32325
G1 X113.861 Y114.722 E.01655
M73 P6 R99
G1 X61.572 Y62.433 E2.32325
G1 X61.565 Y62.96 E.01655
G1 X114.021 Y115.416 E2.33069
;WIPE_START
G1 F8640
G1 X111.693 Y113.088 E-.76
;WIPE_END
G1 E-.04 F2100
G1 Z.6 F10800
G1 X186.944 Y39.79
G1 Z.2
G1 E.8 F2100
G1 F1200
G1 X186.352 Y39.198 E.0263
G1 X185.81 Y39.19 E.01704
G1 X186.769 Y40.15 E.04262
G1 X186.762 Y40.676 E.01655
G1 X185.268 Y39.182 E.06638
G1 X184.726 Y39.175 E.01704
G1 X186.754 Y41.203 E.09013
G1 X186.746 Y41.73 E.01655
G1 X184.183 Y39.167 E.11388
G1 X183.641 Y39.159 E.01704
G1 X186.739 Y42.256 E.13763
G1 X186.731 Y42.783 E.01655
G1 X183.099 Y39.151 E.16138
G1 X182.557 Y39.143 E.01704
G1 X186.723 Y43.31 E.18513
G1 X186.716 Y43.836 E.01655
G1 X182.014 Y39.135 E.20889
G1 X181.472 Y39.127 E.01704
G1 X186.708 Y44.363 E.23264
G1 X186.701 Y44.89 E.01655
G1 X180.93 Y39.119 E.25639
G1 X180.388 Y39.112 E.01704
G1 X186.693 Y45.417 E.28014
G1 X186.685 Y45.943 E.01655
G1 X179.846 Y39.104 E.30389
G1 X179.303 Y39.096 E.01704
G1 X186.678 Y46.47 E.32765
G1 X186.67 Y46.997 E.01655
G1 X178.761 Y39.088 E.3514
G1 X178.219 Y39.08 E.01704
G1 X186.662 Y47.523 E.37515
G1 X186.655 Y48.05 E.01655
G1 X177.677 Y39.072 E.3989
G1 X177.134 Y39.064 E.01704
G1 X186.647 Y48.577 E.42265
G1 X186.639 Y49.103 E.01655
G1 X176.919 Y39.383 E.43188
G1 X176.912 Y39.91 E.01655
G1 X186.632 Y49.63 E.43188
G1 X186.624 Y50.157 E.01655
G1 X176.904 Y40.437 E.43188
G1 X176.896 Y40.963 E.01655
G1 X186.616 Y50.684 E.43188
G1 X186.609 Y51.21 E.01655
G1 X176.889 Y41.49 E.43188
G1 X176.881 Y42.017 E.01655
G1 X186.601 Y51.737 E.43188
G1 X186.593 Y52.264 E.01655
G1 X176.873 Y42.544 E.43188
G1 X176.866 Y43.07 E.01655
G1 X186.586 Y52.79 E.43188
G1 X186.578 Y53.317 E.01655
G1 X176.858 Y43.597 E.43188
G1 X176.85 Y44.124 E.01655
G1 X186.57 Y53.844 E.43188
G1 X186.563 Y54.37 E.01655
G1 X176.843 Y44.65 E.43188
G1 X176.835 Y45.177 E.01655
G1 X186.555 Y54.897 E.43188
G1 X186.548 Y55.424 E.01655
G1 X176.827 Y45.704 E.43188
G1 X176.82 Y46.23 E.01655
G1 X186.54 Y55.951 E.43188
G1 X186.532 Y56.477 E.01655
G1 X176.812 Y46.757 E.43188
G1 X176.804 Y47.284 E.01655
G1 X186.525 Y57.004 E.43188
G1 X186.517 Y57.531 E.01655
G1 X176.797 Y47.811 E.43188
G1 X176.789 Y48.337 E.01655
M73 Q6 S100
G1 X186.509 Y58.057 E.43188
G1 X186.502 Y58.584 E.01655
G1 X176.768 Y48.851 E.43246
G1 X176.747 Y48.986 E.00429
G1 X176.703 Y49.101 E.00389
G1 X176.618 Y49.234 E.00497
G1 X186.494 Y59.111 E.43882
G1 X186.486 Y59.637 E.01655
G1 X176.334 Y49.486 E.45106
G1 X176.125 Y49.567 E.00706
G1 X175.902 Y49.587 E.00704
G1 X186.479 Y60.164 E.46994
G1 X186.471 Y60.691 E.01655
G1 X175.36 Y49.58 E.49369
G1 X174.818 Y49.572 E.01704
G1 X186.463 Y61.218 E.51744
G1 X186.456 Y61.744 E.01655
G1 X174.275 Y49.564 E.54119
G1 X173.733 Y49.556 E.01704
G1 X186.448 Y62.271 E.56494
G1 X186.44 Y62.798 E.01655
G1 X173.191 Y49.548 E.5887
G1 X172.649 Y49.54 E.01704
G1 X186.433 Y63.324 E.61245
G1 X186.425 Y63.851 E.01655
G1 X172.106 Y49.532 E.6362
G1 X171.564 Y49.524 E.01704
G1 X186.418 Y64.378 E.65995
G1 X186.41 Y64.904 E.01655
G1 X171.022 Y49.517 E.6837
G1 X170.48 Y49.509 E.01704
G1 X186.402 Y65.431 E.70746
G1 X186.395 Y65.958 E.01655
G1 X169.938 Y49.501 E.73121
G1 X169.395 Y49.493 E.01704
G1 X186.387 Y66.485 E.75496
G1 X186.379 Y67.011 E.01655
G1 X168.853 Y49.485 E.77871
G1 X168.311 Y49.477 E.01704
