; generated by PrusaSlicer 2.5.2+win64 on 2023-10-31 at 01:24:11 UTC

; 

; external perimeters extrusion width = 0.45mm
; perimeters extrusion width = 0.45mm
; infill extrusion width = 0.45mm
; solid infill extrusion width = 0.45mm
; top infill extrusion width = 0.40mm
; support material extrusion width = 0.35mm
; first layer extrusion width = 0.42mm

M73 P0 R176
M73 Q0 S183
M107
;TYPE:Custom
M862.3 P "MK3S" ; printer model check
M862.1 P0.4 ; nozzle diameter check
M115 U3.10.0 ; tell printer latest fw version
G90 ; use absolute coordinates
M83 ; extruder relative mode
M104 S215 ; set extruder temp
M140 S60 ; set bed temp
M190 S60 ; wait for bed temp
M109 S215 ; wait for extruder temp
G28 W ; home all without mesh bed level
G80 ; mesh bed leveling
G1 Y-3.0 F1000.0 ; go outside print area
G92 E0.0
G1 X60.0 E9.0 F1000.0 ; intro line
G1 X100.0 E12.5 F1000.0 ; intro line
G92 E0.0
M221 S95

; Don't change E values below. Excessive value can damage the printer.

M907 E538 ; set extruder motor current
G21 ; set units to millimeters
G90 ; use absolute coordinates
M83 ; use relative distances for extrusion
M900 K0.05 ; Filament gcode LA 1.5
M900 K30 ; Filament gcode LA 1.0
M107
;LAYER_CHANGE
;Z:0.2
;HEIGHT:0.2
;BEFORE_LAYER_CHANGE
G92 E0.0
;0.2


M73 Q0 S182
G1 E-.8 F2100
G1 Z.4 F10800
;AFTER_LAYER_CHANGE
;0.2
G1 X59.515 Y38.115
G1 Z.2
G1 E.8 F2100
M204 S1000
;TYPE:Skirt/Brim
;WIDTH:0.42
G1 F1200
G1 X60.56 Y37.238 E.04278
G1 X61.5 Y37.044 E.03008
G1 X188.5 Y37.044 E3.982
G1 X189.807 Y37.436 E.04278
G1 X190.683 Y38.482 E.04278
G1 X190.877 Y39.422 E.03008
G1 X190.877 Y170.405 E4.1069
G1 X190.485 Y171.712 E.04278
G1 X189.44 Y172.589 E.04278
G1 X188.5 Y172.782 E.03008
G1 X61.5 Y172.782 E3.982
G1 X60.193 Y172.391 E.04278
M73 P0 R175
G1 X59.317 Y171.345 E.04278
G1 X59.123 Y170.405 E.03008
G1 X59.123 Y39.422 E4.1069
G1 X59.497 Y38.172 E.0409
; printing object bottom_plate.STL id:0 copy 0
;WIPE_START
G1 F8640
G1 X60.56 Y37.238 E-.32671
G1 X61.5 Y37.044 E-.22155
G1 X62.417 Y37.044 E-.21174
;WIPE_END
G1 E-.04 F2100
G1 Z.6 F10800
G1 X62.287 Y40.209
G1 Z.2
G1 E.8 F2100
;TYPE:Perimeter
;WIDTH:0.419999
G1 F1200
G1 X187.713 Y40.209 E3.93263
G1 X187.713 Y169.618 E4.05754
G1 X62.287 Y169.618 E3.93263
G1 X62.287 Y40.269 E4.05566
G1 X61.91 Y39.832 F10800
;TYPE:External perimeter
G1 F1200
G1 X188.09 Y39.832 E3.95628
G1 X188.09 Y169.995 E4.08119
M73 Q0 S181
G1 X61.91 Y169.995 E3.95628
G1 X61.91 Y39.892 E4.0793
G1 X62.296 Y39.937 F10800
;WIPE_START
M73 P0 R174
G1 F8640
G1 X65.201 Y39.89 E-.76
;WIPE_END
G1 E-.04 F2100
G1 Z.6 F10800
G1 X186.837 Y40.322
G1 Z.2
G1 E.8 F2100
;TYPE:Solid infill
;WIDTH:0.42013
G1 F1200
G1 X187.43 Y40.915 E.0263
G1 X187.43 Y41.448 E.01673
G1 X186.473 Y40.491 E.04243
G1 X185.94 Y40.491 E.01673
G1 X187.43 Y41.982 E.0661
G1 X187.43 Y42.515 E.01673
G1 X185.407 Y40.491 E.08976
G1 X184.873 Y40.491 E.01673
G1 X187.43 Y43.048 E.11342
G1 X187.43 Y43.582 E.01673
G1 X184.34 Y40.491 E.13708
G1 X183.806 Y40.491 E.01673
G1 X187.43 Y44.115 E.16075
G1 X187.43 Y44.649 E.01673
G1 X183.273 Y40.491 E.18441
G1 X182.739 Y40.491 E.01673
G1 X187.43 Y45.182 E.20807
G1 X187.43 Y45.716 E.01673
G1 X182.206 Y40.491 E.23173
G1 X181.672 Y40.491 E.01673
G1 X187.43 Y46.249 E.2554
G1 X187.43 Y46.783 E.01673
G1 X181.139 Y40.491 E.27906
G1 X180.605 Y40.491 E.01673
G1 X187.43 Y47.316 E.30272
G1 X187.43 Y47.85 E.01673
G1 X180.072 Y40.491 E.32638
G1 X179.539 Y40.491 E.01673
G1 X187.43 Y48.383 E.35005
G1 X187.43 Y48.916 E.01673
G1 X179.005 Y40.491 E.37371
G1 X178.472 Y40.491 E.01673
G1 X187.43 Y49.45 E.39737
G1 X187.43 Y49.983 E.01673
G1 X177.938 Y40.491 E.42103
G1 X177.405 Y40.491 E.01673
G1 X187.43 Y50.517 E.4447
G1 X187.43 Y51.05 E.01673
G1 X176.871 Y40.491 E.46836
G1 X176.338 Y40.491 E.01673
G1 X187.43 Y51.584 E.49202
G1 X187.43 Y52.117 E.01673
G1 X175.804 Y40.491 E.51568
G1 X175.271 Y40.491 E.01673
G1 X187.43 Y52.651 E.53935
G1 X187.43 Y53.184 E.01673
G1 X174.737 Y40.491 E.56301
G1 X174.204 Y40.491 E.01673
G1 X187.43 Y53.718 E.58667
G1 X187.43 Y54.251 E.01673
G1 X173.671 Y40.491 E.61033
G1 X173.137 Y40.491 E.01673
G1 X187.43 Y54.784 E.634
G1 X187.43 Y55.318 E.01673
G1 X172.604 Y40.491 E.65766
G1 X172.07 Y40.491 E.01673
G1 X187.43 Y55.851 E.68132
G1 X187.43 Y56.385 E.01673
G1 X171.537 Y40.491 E.70498
G1 X171.003 Y40.491 E.01673
G1 X187.43 Y56.918 E.72865
G1 X187.43 Y57.452 E.01673
G1 X170.47 Y40.491 E.75231
G1 X169.936 Y40.491 E.01673
M73 P1 R174
G1 X187.43 Y57.985 E.77597
G1 X187.43 Y58.519 E.01673
G1 X169.403 Y40.491 E.79963
G1 X168.869 Y40.491 E.01673
M73 Q1 S181
G1 X187.43 Y59.052 E.8233
G1 X187.43 Y59.586 E.01673
G1 X168.336 Y40.491 E.84696
G1 X167.803 Y40.491 E.01673
G1 X187.43 Y60.119 E.87062
G1 X187.43 Y60.652 E.01673
G1 X167.269 Y40.491 E.89428
G1 X166.736 Y40.491 E.01673
G1 X187.43 Y61.186 E.91795
G1 X187.43 Y61.719 E.01673
G1 X166.202 Y40.491 E.94161
G1 X165.669 Y40.491 E.01673
G1 X187.43 Y62.253 E.96527
G1 X187.43 Y62.786 E.01673
G1 X165.135 Y40.491 E.98893
G1 X164.602 Y40.491 E.01673
G1 X187.43 Y63.32 E1.0126
G1 X187.43 Y63.853 E.01673
M73 Q1 S180
G1 X164.068 Y40.491 E1.03626
G1 X163.535 Y40.491 E.01673
G1 X187.43 Y64.387 E1.05992
G1 X187.43 Y64.92 E.01673
G1 X163.001 Y40.491 E1.08358
G1 X162.468 Y40.491 E.01673
G1 X187.43 Y65.454 E1.10725
G1 X187.43 Y65.987 E.01673
G1 X161.935 Y40.491 E1.13091
G1 X161.401 Y40.491 E.01673
G1 X187.43 Y66.52 E1.15457
G1 X187.43 Y67.054 E.01673
G1 X160.868 Y40.491 E1.17823
G1 X160.334 Y40.491 E.01673
G1 X187.43 Y67.587 E1.2019
G1 X187.43 Y68.121 E.01673
G1 X159.801 Y40.491 E1.22556
G1 X159.267 Y40.491 E.01673
G1 X187.43 Y68.654 E1.24922
G1 X187.43 Y69.188 E.01673
M73 P1 R173
G1 X158.734 Y40.491 E1.27288
G1 X158.2 Y40.491 E.01673
G1 X187.43 Y69.721 E1.29655
G1 X187.43 Y70.255 E.01673
G1 X157.667 Y40.491 E1.32021
G1 X157.133 Y40.491 E.01673
G1 X187.43 Y70.788 E1.34387
G1 X187.43 Y71.322 E.01673
G1 X156.6 Y40.491 E1.36753
G1 X156.067 Y40.491 E.01673
G1 X187.43 Y71.855 E1.3912
G1 X187.43 Y72.388 E.01673
G1 X155.533 Y40.491 E1.41486
G1 X155 Y40.491 E.01673
G1 X187.43 Y72.922 E1.43852
G1 X187.43 Y73.455 E.01673
G1 X154.466 Y40.491 E1.46218
G1 X153.933 Y40.491 E.01673
G1 X187.43 Y73.989 E1.48585
G1 X187.43 Y74.522 E.01673
G1 X153.399 Y40.491 E1.50951
G1 X152.866 Y40.491 E.01673
G1 X187.43 Y75.056 E1.53317
G1 X187.43 Y75.589 E.01673
G1 X152.332 Y40.491 E1.55683
G1 X151.799 Y40.491 E.01673
G1 X187.43 Y76.123 E1.5805
G1 X187.43 Y76.656 E.01673
G1 X151.265 Y40.491 E1.60416
G1 X150.732 Y40.491 E.01673
G1 X187.43 Y77.19 E1.62782
G1 X187.43 Y77.723 E.01673
G1 X150.199 Y40.491 E1.65148
G1 X149.665 Y40.491 E.01673
M73 Q1 S179
G1 X187.43 Y78.256 E1.67515
G1 X187.43 Y78.79 E.01673
G1 X149.132 Y40.491 E1.69881
G1 X148.598 Y40.491 E.01673
G1 X187.43 Y79.323 E1.72247
G1 X187.43 Y79.857 E.01673
G1 X148.065 Y40.491 E1.74613
G1 X147.531 Y40.491 E.01673
G1 X187.43 Y80.39 E1.7698
G1 X187.43 Y80.924 E.01673
G1 X146.998 Y40.491 E1.79346
G1 X146.464 Y40.491 E.01673
G1 X187.43 Y81.457 E1.81712
G1 X187.43 Y81.991 E.01673
M73 P1 R172
G1 X145.931 Y40.491 E1.84078
G1 X145.397 Y40.491 E.01673
G1 X187.43 Y82.524 E1.86444
G1 X187.43 Y83.058 E.01673
G1 X144.864 Y40.491 E1.88811
G1 X144.331 Y40.491 E.01673
G1 X187.43 Y83.591 E1.91177
G1 X187.43 Y84.124 E.01673
M73 P2 R172
G1 X143.797 Y40.491 E1.93543
G1 X143.264 Y40.491 E.01673
G1 X187.43 Y84.658 E1.95909
G1 X187.43 Y85.191 E.01673
M73 Q2 S179
G1 X142.73 Y40.491 E1.98276
G1 X142.197 Y40.491 E.01673
G1 X187.43 Y85.725 E2.00642
G1 X187.43 Y86.258 E.01673
G1 X141.663 Y40.491 E2.03008
G1 X141.13 Y40.491 E.01673
G1 X187.43 Y86.792 E2.05374
G1 X187.43 Y87.325 E.01673
G1 X140.596 Y40.491 E2.07741
G1 X140.063 Y40.491 E.01673
G1 X187.43 Y87.859 E2.10107
G1 X187.43 Y88.392 E.01673
G1 X139.529 Y40.491 E2.12473
G1 X138.996 Y40.491 E.01673
M73 Q2 S178
G1 X187.43 Y88.926 E2.14839
G1 X187.43 Y89.459 E.01673
G1 X138.463 Y40.491 E2.17206
G1 X137.929 Y40.491 E.01673
G1 X187.43 Y89.992 E2.19572
G1 X187.43 Y90.526 E.01673
G1 X137.396 Y40.491 E2.21938
G1 X136.862 Y40.491 E.01673
G1 X187.43 Y91.059 E2.24304
G1 X187.43 Y91.593 E.01673
G1 X136.329 Y40.491 E2.26671
G1 X135.795 Y40.491 E.01673
M73 P2 R171
G1 X187.43 Y92.126 E2.29037
G1 X187.43 Y92.66 E.01673
G1 X135.262 Y40.491 E2.31403
G1 X134.728 Y40.491 E.01673
G1 X187.43 Y93.193 E2.33769
G1 X187.43 Y93.727 E.01673
G1 X134.195 Y40.491 E2.36136
G1 X133.661 Y40.491 E.01673
G1 X187.43 Y94.26 E2.38502
G1 X187.43 Y94.794 E.01673
G1 X133.128 Y40.491 E2.40868
G1 X132.594 Y40.491 E.01673
G1 X187.43 Y95.327 E2.43234
G1 X187.43 Y95.861 E.01673
G1 X132.061 Y40.491 E2.45601
G1 X131.528 Y40.491 E.01673
G1 X187.43 Y96.394 E2.47967
G1 X187.43 Y96.927 E.01673
G1 X130.994 Y40.491 E2.50333
G1 X130.461 Y40.491 E.01673
M73 Q2 S177
G1 X187.43 Y97.461 E2.52699
G1 X187.43 Y97.994 E.01673
G1 X129.927 Y40.491 E2.55066
G1 X129.394 Y40.491 E.01673
G1 X187.43 Y98.528 E2.57432
G1 X187.43 Y99.061 E.01673
G1 X128.86 Y40.491 E2.59798
G1 X128.327 Y40.491 E.01673
M73 P3 R171
G1 X187.43 Y99.595 E2.62164
G1 X187.43 Y100.128 E.01673
M73 P3 R170
G1 X127.793 Y40.491 E2.64531
G1 X127.26 Y40.491 E.01673
G1 X187.43 Y100.662 E2.66897
G1 X187.43 Y101.195 E.01673
M73 Q3 S177
G1 X126.726 Y40.491 E2.69263
G1 X126.193 Y40.491 E.01673
G1 X187.43 Y101.729 E2.71629
G1 X187.43 Y102.262 E.01673
G1 X125.66 Y40.491 E2.73996
G1 X125.126 Y40.491 E.01673
G1 X187.43 Y102.795 E2.76362
G1 X187.43 Y103.329 E.01673
G1 X124.593 Y40.491 E2.78728
G1 X124.059 Y40.491 E.01673
G1 X187.43 Y103.862 E2.81094
G1 X187.43 Y104.396 E.01673
G1 X123.526 Y40.491 E2.83461
G1 X122.992 Y40.491 E.01673
M73 Q3 S176
G1 X187.43 Y104.929 E2.85827
G1 X187.43 Y105.463 E.01673
G1 X122.459 Y40.491 E2.88193
G1 X121.925 Y40.491 E.01673
G1 X187.43 Y105.996 E2.90559
G1 X187.43 Y106.53 E.01673
G1 X121.392 Y40.491 E2.92926
G1 X120.858 Y40.491 E.01673
M73 P3 R169
G1 X187.43 Y107.063 E2.95292
G1 X187.43 Y107.597 E.01673
G1 X120.325 Y40.491 E2.97658
G1 X119.792 Y40.491 E.01673
G1 X187.43 Y108.13 E3.00024
G1 X187.43 Y108.663 E.01673
G1 X119.258 Y40.491 E3.02391
G1 X118.725 Y40.491 E.01673
G1 X187.43 Y109.197 E3.04757
G1 X187.43 Y109.73 E.01673
G1 X118.191 Y40.491 E3.07123
G1 X117.658 Y40.491 E.01673
G1 X187.43 Y110.264 E3.09489
G1 X187.43 Y110.797 E.01673
G1 X117.124 Y40.491 E3.11856
G1 X116.591 Y40.491 E.01673
G1 X187.43 Y111.331 E3.14222
G1 X187.43 Y111.864 E.01673
M73 P4 R169
M73 Q3 S175
G1 X116.057 Y40.491 E3.16588
G1 X115.524 Y40.491 E.01673
G1 X187.43 Y112.398 E3.18954
G1 X187.43 Y112.931 E.01673
G1 X114.99 Y40.491 E3.21321
G1 X114.457 Y40.491 E.01673
M73 Q4 S175
G1 X187.43 Y113.465 E3.23687
M73 P4 R168
G1 X187.43 Y113.998 E.01673
G1 X113.924 Y40.491 E3.26053
G1 X113.39 Y40.491 E.01673
G1 X187.43 Y114.531 E3.28419
G1 X187.43 Y115.065 E.01673
G1 X112.857 Y40.491 E3.30786
G1 X112.323 Y40.491 E.01673
G1 X187.43 Y115.598 E3.33152
G1 X187.43 Y116.132 E.01673
G1 X111.79 Y40.491 E3.35518
G1 X111.256 Y40.491 E.01673
G1 X187.43 Y116.665 E3.37884
G1 X187.43 Y117.199 E.01673
G1 X110.723 Y40.491 E3.40251
G1 X110.189 Y40.491 E.01673
M73 Q4 S174
G1 X187.43 Y117.732 E3.42617
G1 X187.43 Y118.266 E.01673
G1 X109.656 Y40.491 E3.44983
G1 X109.122 Y40.491 E.01673
G1 X187.43 Y118.799 E3.47349
G1 X187.43 Y119.333 E.01673
G1 X108.589 Y40.491 E3.49716
G1 X108.056 Y40.491 E.01673
M73 P4 R167
G1 X187.43 Y119.866 E3.52082
G1 X187.43 Y120.399 E.01673
G1 X107.522 Y40.491 E3.54448
G1 X106.989 Y40.491 E.01673
G1 X187.43 Y120.933 E3.56814
G1 X187.43 Y121.466 E.01673
G1 X106.455 Y40.491 E3.59181
G1 X105.922 Y40.491 E.01673
M73 P5 R167
G1 X187.43 Y122 E3.61547
G1 X187.43 Y122.533 E.01673
G1 X105.388 Y40.491 E3.63913
G1 X104.855 Y40.491 E.01673
G1 X187.43 Y123.067 E3.66279
G1 X187.43 Y123.6 E.01673
M73 Q4 S173
G1 X104.321 Y40.491 E3.68646
G1 X103.788 Y40.491 E.01673
M73 Q5 S173
G1 X187.43 Y124.134 E3.71012
G1 X187.43 Y124.667 E.01673
G1 X103.254 Y40.491 E3.73378
G1 X102.721 Y40.491 E.01673
M73 P5 R166
G1 X187.43 Y125.201 E3.75744
G1 X187.43 Y125.734 E.01673
G1 X102.188 Y40.491 E3.78111
G1 X101.654 Y40.491 E.01673
G1 X187.43 Y126.267 E3.80477
G1 X187.43 Y126.801 E.01673
G1 X101.121 Y40.491 E3.82843
G1 X100.587 Y40.491 E.01673
G1 X187.43 Y127.334 E3.85209
G1 X187.43 Y127.868 E.01673
G1 X100.054 Y40.491 E3.87576
G1 X99.52 Y40.491 E.01673
G1 X187.43 Y128.401 E3.89942
G1 X187.43 Y128.935 E.01673
M73 Q5 S172
G1 X98.987 Y40.491 E3.92308
G1 X98.453 Y40.491 E.01673
G1 X187.43 Y129.468 E3.94674
G1 X187.43 Y130.002 E.01673
G1 X97.92 Y40.491 E3.97041
G1 X97.386 Y40.491 E.01673
M73 P5 R165
G1 X187.43 Y130.535 E3.99407
G1 X187.43 Y131.069 E.01673
G1 X96.853 Y40.491 E4.01773
G1 X96.32 Y40.491 E.01673
M73 P6 R165
G1 X187.43 Y131.602 E4.04139
G1 X187.43 Y132.135 E.01673
G1 X95.786 Y40.491 E4.06506
G1 X95.253 Y40.491 E.01673
G1 X187.43 Y132.669 E4.08872
G1 X187.43 Y133.202 E.01673
M73 Q6 S172
G1 X94.719 Y40.491 E4.11238
G1 X94.186 Y40.491 E.01673
M73 Q6 S171
G1 X187.43 Y133.736 E4.13604
G1 X187.43 Y134.269 E.01673
G1 X93.652 Y40.491 E4.15971
G1 X93.119 Y40.491 E.01673
G1 X187.43 Y134.803 E4.18337
G1 X187.43 Y135.336 E.01673
M73 P6 R164
G1 X92.585 Y40.491 E4.20703
G1 X92.052 Y40.491 E.01673
G1 X187.43 Y135.87 E4.23069
G1 X187.43 Y136.403 E.01673
G1 X91.518 Y40.491 E4.25436
G1 X90.985 Y40.491 E.01673
G1 X187.43 Y136.937 E4.27802
G1 X187.43 Y137.47 E.01673
G1 X90.452 Y40.491 E4.30168
G1 X89.918 Y40.491 E.01673
G1 X187.43 Y138.003 E4.32534
G1 X187.43 Y138.537 E.01673
M73 Q6 S170
G1 X89.385 Y40.491 E4.34901
G1 X88.851 Y40.491 E.01673
G1 X187.43 Y139.07 E4.37267
G1 X187.43 Y139.604 E.01673
G1 X88.318 Y40.491 E4.39633
M73 P7 R164
G1 X87.784 Y40.491 E.01673
M73 P7 R163
G1 X187.43 Y140.137 E4.41999
G1 X187.43 Y140.671 E.01673
G1 X87.251 Y40.491 E4.44366
G1 X86.717 Y40.491 E.01673
G1 X187.43 Y141.204 E4.46732
G1 X187.43 Y141.738 E.01673
M73 Q7 S170
G1 X86.184 Y40.491 E4.49098
G1 X85.65 Y40.491 E.01673
G1 X187.43 Y142.271 E4.51464
G1 X187.43 Y142.805 E.01673
M73 Q7 S169
G1 X85.117 Y40.491 E4.53831
G1 X84.583 Y40.491 E.01673
G1 X187.43 Y143.338 E4.56197
G1 X187.43 Y143.872 E.01673
G1 X84.05 Y40.491 E4.58563
G1 X83.517 Y40.491 E.01673
M73 P7 R162
G1 X187.43 Y144.405 E4.60929
G1 X187.43 Y144.938 E.01673
G1 X82.983 Y40.491 E4.63296
G1 X82.45 Y40.491 E.01673
G1 X187.43 Y145.472 E4.65662
G1 X187.43 Y146.005 E.01673
G1 X81.916 Y40.491 E4.68028
G1 X81.383 Y40.491 E.01673
G1 X187.43 Y146.539 E4.70394
G1 X187.43 Y147.072 E.01673
M73 Q7 S168
G1 X80.849 Y40.491 E4.72761
G1 X80.316 Y40.491 E.01673
M73 P8 R162
G1 X187.43 Y147.606 E4.75127
G1 X187.43 Y148.139 E.01673
G1 X79.782 Y40.491 E4.77493
G1 X79.249 Y40.491 E.01673
M73 P8 R161
G1 X187.43 Y148.673 E4.79859
G1 X187.43 Y149.206 E.01673
G1 X78.715 Y40.491 E4.82226
G1 X78.182 Y40.491 E.01673
M73 Q8 S168
G1 X187.43 Y149.74 E4.84592
G1 X187.43 Y150.273 E.01673
G1 X77.649 Y40.491 E4.86958
G1 X77.115 Y40.491 E.01673
G1 X187.43 Y150.806 E4.89324
G1 X187.43 Y151.34 E.01673
M73 Q8 S167
G1 X76.582 Y40.491 E4.91691
G1 X76.048 Y40.491 E.01673
G1 X187.43 Y151.873 E4.94057
G1 X187.43 Y152.407 E.01673
G1 X75.515 Y40.491 E4.96423
G1 X74.981 Y40.491 E.01673
M73 P8 R160
G1 X187.43 Y152.94 E4.98789
G1 X187.43 Y153.474 E.01673
G1 X74.448 Y40.491 E5.01156
G1 X73.914 Y40.491 E.01673
G1 X187.43 Y154.007 E5.03522
G1 X187.43 Y154.541 E.01673
G1 X73.381 Y40.491 E5.05888
G1 X72.847 Y40.491 E.01673
M73 P9 R160
G1 X187.43 Y155.074 E5.08254
G1 X187.43 Y155.608 E.01673
M73 Q8 S166
G1 X72.314 Y40.491 E5.10621
G1 X71.781 Y40.491 E.01673
G1 X187.43 Y156.141 E5.12987
G1 X187.43 Y156.674 E.01673
M73 P9 R159
G1 X71.247 Y40.491 E5.15353
G1 X70.714 Y40.491 E.01673
M73 Q9 S166
G1 X187.43 Y157.208 E5.17719
G1 X187.43 Y157.741 E.01673
G1 X70.18 Y40.491 E5.20086
G1 X69.647 Y40.491 E.01673
G1 X187.43 Y158.275 E5.22452
G1 X187.43 Y158.808 E.01673
G1 X69.113 Y40.491 E5.24818
G1 X68.58 Y40.491 E.01673
M73 Q9 S165
G1 X187.43 Y159.342 E5.27184
G1 X187.43 Y159.875 E.01673
G1 X68.046 Y40.491 E5.29551
G1 X67.513 Y40.491 E.01673
M73 P9 R158
G1 X187.43 Y160.409 E5.31917
G1 X187.43 Y160.942 E.01673
G1 X66.979 Y40.491 E5.34283
G1 X66.446 Y40.491 E.01673
M73 P10 R158
G1 X187.43 Y161.476 E5.36649
G1 X187.43 Y162.009 E.01673
G1 X65.913 Y40.491 E5.39016
G1 X65.379 Y40.491 E.01673
G1 X187.43 Y162.542 E5.41382
