; generated by PrusaSlicer 2.5.2+win64 on 2023-10-31 at 01:26:05 UTC

; 

; external perimeters extrusion width = 0.45mm
; perimeters extrusion width = 0.45mm
; infill extrusion width = 0.45mm
; solid infill extrusion width = 0.45mm
; top infill extrusion width = 0.40mm
; support material extrusion width = 0.35mm
; first layer extrusion width = 0.42mm

M73 P0 R78
M73 Q0 S81
M107
;TYPE:Custom
M862.3 P "MK3S" ; printer model check
M862.1 P0.4 ; nozzle diameter check
M115 U3.10.0 ; tell printer latest fw version
G90 ; use absolute coordinates
M83 ; extruder relative mode
M104 S215 ; set extruder temp
M140 S60 ; set bed temp
M190 S60 ; wait for bed temp
M109 S215 ; wait for extruder temp
G28 W ; home all without mesh bed level
G80 ; mesh bed leveling
G1 Y-3.0 F1000.0 ; go outside print area
G92 E0.0
G1 X60.0 E9.0 F1000.0 ; intro line
G1 X100.0 E12.5 F1000.0 ; intro line
G92 E0.0
M221 S95

; Don't change E values below. Excessive value can damage the printer.

M907 E538 ; set extruder motor current
G21 ; set units to millimeters
G90 ; use absolute coordinates
M83 ; use relative distances for extrusion
M900 K0.05 ; Filament gcode LA 1.5
M900 K30 ; Filament gcode LA 1.0
M107
;LAYER_CHANGE
;Z:0.2
;HEIGHT:0.2
;BEFORE_LAYER_CHANGE
G92 E0.0
;0.2


G1 E-.8 F2100
G1 Z.4 F10800
;AFTER_LAYER_CHANGE
;0.2
G1 X95.016 Y42.733
G1 Z.2
G1 E.8 F2100
M204 S1000
;TYPE:Skirt/Brim
;WIDTH:0.42
G1 F1200
G1 X96.062 Y41.857 E.04278
G1 X96.802 Y41.671 E.02392
G1 X147.542 Y37.397 E1.59654
G1 X157.935 Y37.388 E.32588
G1 X159.243 Y37.78 E.04278
G1 X160.119 Y38.826 E.04278
G1 X160.313 Y39.765 E.03008
G1 X160.313 Y170.235 E4.09077
G1 X159.921 Y171.542 E.04278
G1 X158.875 Y172.418 E.04278
G1 X157.935 Y172.612 E.03008
G1 X147.542 Y172.603 E.32588
G1 X96.802 Y168.329 E1.59654
G1 X95.533 Y167.829 E.04278
G1 X94.747 Y166.713 E.04278
G1 X94.625 Y165.96 E.02392
G1 X94.625 Y44.04 E3.82272
G1 X94.999 Y42.79 E.0409
; printing object front_plow.STL id:0 copy 0
;WIPE_START
G1 F8640
G1 X96.062 Y41.857 E-.32671
G1 X96.802 Y41.671 E-.17619
G1 X97.912 Y41.578 E-.2571
;WIPE_END
G1 E-.04 F2100
G1 Z.6 F10800
G1 X148.172 Y42.709
G1 Z.2
G1 E.8 F2100
;TYPE:Support material interface
;WIDTH:0.35
G1 F1200
G1 X148.071 Y42.709 E.00259
G1 X148.071 Y43.661 E.02432
G1 X148.181 Y43.661 E.0028
;WIPE_START
G1 F8640
G1 X148.071 Y43.661 E-.02536
G1 X148.071 Y42.709 E-.21996
G1 X148.172 Y42.709 E-.0234
;WIPE_END
G1 E-.53128 F2100
G1 Z.6 F10800
G1 X150.354 Y42.709
M73 Q0 S80
G1 Z.2
G1 E.8 F2100
G1 F1200
G1 X150.354 Y167.291 E3.18106
G1 X149.847 Y167.291 E.01295
G1 X149.847 Y42.709 E3.18106
G1 X149.34 Y42.709 E.01295
G1 X149.34 Y167.291 E3.18106
G1 X148.833 Y167.291 E.01295
G1 X148.833 Y42.709 E3.18106
G1 X148.326 Y42.709 E.01295
M73 P1 R78
M73 Q1 S80
G1 X148.326 Y43.682 E.02485
G1 X148.527 Y43.883 E.00727
G1 X148.527 Y166.117 E3.12108
G1 X148.326 Y166.318 E.00727
M73 P1 R77
G1 X148.326 Y167.291 E.02485
G1 X148.071 Y167.291 E.00651
G1 X148.071 Y166.339 E.02432
G1 X148.181 Y166.339 E.0028
;WIPE_START
G1 F8640
G1 X148.071 Y166.339 E-.02535
G1 X148.071 Y167.291 E-.21997
G1 X148.326 Y167.291 E-.05885
G1 X148.326 Y166.318 E-.2247
G1 X148.527 Y166.117 E-.06571
G1 X148.527 Y165.4 E-.16541
;WIPE_END
G1 E-.04 F2100
G1 Z.6 F10800
G1 X157.935 Y170.235
G1 Z.2
G1 E.8 F2100
;TYPE:Support material
;WIDTH:0.42
G1 F1200
G1 X147.742 Y170.235 E.31962
G1 X147.742 Y167.655 E.08089
G1 X150.742 Y167.655 E.09406
G1 X150.742 Y42.345 E3.92899
G1 X147.742 Y42.345 E.09406
G1 X147.742 Y39.765 E.08089
G1 X157.935 Y39.765 E.31962
G1 X157.935 Y170.178 E4.089
G1 X157.261 Y170.065 F10800
G1 F1200
G1 X157.261 Y40.105 E4.07481
G1 X156.842 Y40.105 E.01314
G1 X156.842 Y169.895 E4.06949
G1 X156.423 Y169.895 E.01314
G1 X156.423 Y40.105 E4.06949
G1 X156.004 Y40.105 E.01314
M73 Q1 S79
G1 X156.004 Y169.895 E4.06949
G1 X155.585 Y169.895 E.01314
M73 P2 R77
M73 Q2 S79
G1 X155.585 Y40.105 E4.06949
G1 X155.166 Y40.105 E.01314
G1 X155.166 Y169.895 E4.06949
G1 X154.747 Y169.895 E.01314
G1 X154.747 Y40.105 E4.06949
G1 X154.328 Y40.105 E.01314
M73 P2 R76
G1 X154.328 Y169.895 E4.06949
G1 X153.909 Y169.895 E.01314
G1 X153.909 Y40.105 E4.06949
G1 X153.49 Y40.105 E.01314
G1 X153.49 Y169.895 E4.06949
G1 X153.071 Y169.895 E.01314
G1 X153.071 Y40.105 E4.06949
G1 X152.652 Y40.105 E.01314
M73 P3 R76
G1 X152.652 Y169.895 E4.06949
G1 X152.233 Y169.895 E.01314
M73 Q3 S78
G1 X152.234 Y40.105 E4.06949
G1 X151.815 Y40.105 E.01314
G1 X151.815 Y169.895 E4.06949
G1 X151.396 Y169.895 E.01314
G1 X151.396 Y40.105 E4.06949
G1 X150.977 Y40.105 E.01314
G1 X150.977 Y169.895 E4.06949
G1 X150.558 Y169.895 E.01314
M73 P3 R75
G1 X150.558 Y167.994 E.05961
G1 X150.139 Y167.994 E.01314
G1 X150.139 Y169.895 E.05961
G1 X149.72 Y169.895 E.01314
G1 X149.72 Y167.994 E.05961
G1 X149.301 Y167.994 E.01314
G1 X149.301 Y169.895 E.05961
G1 X148.882 Y169.895 E.01314
G1 X148.882 Y167.994 E.05961
G1 X148.463 Y167.994 E.01314
G1 X148.463 Y170.065 E.06493
;WIPE_START
G1 F8640
G1 X148.463 Y167.994 E-.47814
G1 X148.882 Y167.994 E-.09674
G1 X148.882 Y168.796 E-.18511
;WIPE_END
G1 E-.04 F2100
G1 Z.6 F10800
G1 X150.558 Y42.176
G1 Z.2
G1 E.8 F2100
G1 F1200
G1 X150.558 Y40.105 E.06493
G1 X150.139 Y40.105 E.01314
G1 X150.139 Y42.006 E.05961
G1 X149.72 Y42.006 E.01314
G1 X149.72 Y40.105 E.05961
G1 X149.301 Y40.105 E.01314
G1 X149.301 Y42.006 E.05961
G1 X148.882 Y42.006 E.01314
G1 X148.882 Y40.105 E.05961
G1 X148.463 Y40.105 E.01314
G1 X148.463 Y42.176 E.06493
;WIPE_START
G1 F8640
G1 X148.463 Y40.105 E-.47814
G1 X148.882 Y40.105 E-.09674
G1 X148.882 Y40.906 E-.18512
;WIPE_END
G1 E-.04 F2100
G1 Z.6 F10800
G1 X147.015 Y44.827
G1 Z.2
G1 E.8 F2100
;TYPE:Perimeter
;WIDTH:0.419999
G1 F1200
G1 X147.015 Y165.173 E3.77335
G1 X97.789 Y165.173 E1.54344
G1 X97.789 Y44.827 E3.77335
M73 P4 R75
G1 X146.955 Y44.827 E1.54156
M73 Q4 S78
G1 X147.392 Y44.45 F10800
;TYPE:External perimeter
G1 F1200
G1 X147.392 Y165.55 E3.797
G1 X97.412 Y165.55 E1.56709
G1 X97.412 Y44.45 E3.797
M73 Q4 S77
G1 X147.332 Y44.45 E1.5652
G1 X147.34 Y44.847 F10800
;WIPE_START
G1 F8640
G1 X147.334 Y47.741 E-.76
;WIPE_END
G1 E-.04 F2100
G1 Z.6 F10800
G1 X146.139 Y44.94
G1 Z.2
G1 E.8 F2100
;TYPE:Solid infill
;WIDTH:0.420329
G1 F1200
G1 X146.732 Y45.533 E.02633
G1 X146.732 Y46.067 E.01675
G1 X145.775 Y45.11 E.04249
G1 X145.241 Y45.11 E.01675
G1 X146.732 Y46.601 E.06617
G1 X146.732 Y47.135 E.01675
G1 X144.707 Y45.11 E.08986
G1 X144.174 Y45.11 E.01675
G1 X146.732 Y47.668 E.11355
G1 X146.732 Y48.202 E.01675
G1 X143.64 Y45.11 E.13724
G1 X143.106 Y45.11 E.01675
G1 X146.732 Y48.736 E.16092
G1 X146.732 Y49.27 E.01675
G1 X142.572 Y45.11 E.18461
G1 X142.039 Y45.11 E.01675
G1 X146.732 Y49.803 E.2083
G1 X146.732 Y50.337 E.01675
G1 X141.505 Y45.11 E.23199
G1 X140.971 Y45.11 E.01675
G1 X146.732 Y50.871 E.25567
G1 X146.732 Y51.405 E.01675
G1 X140.437 Y45.11 E.27936
G1 X139.904 Y45.11 E.01675
G1 X146.732 Y51.938 E.30305
G1 X146.732 Y52.472 E.01675
G1 X139.37 Y45.11 E.32674
G1 X138.836 Y45.11 E.01675
G1 X146.732 Y53.006 E.35042
G1 X146.732 Y53.54 E.01675
G1 X138.302 Y45.11 E.37411
G1 X137.769 Y45.11 E.01675
G1 X146.732 Y54.073 E.3978
G1 X146.732 Y54.607 E.01675
G1 X137.235 Y45.11 E.42149
G1 X136.701 Y45.11 E.01675
G1 X146.732 Y55.141 E.44517
G1 X146.732 Y55.674 E.01675
G1 X136.167 Y45.11 E.46886
G1 X135.634 Y45.11 E.01675
G1 X146.732 Y56.208 E.49255
G1 X146.732 Y56.742 E.01675
G1 X135.1 Y45.11 E.51624
G1 X134.566 Y45.11 E.01675
G1 X146.732 Y57.276 E.53992
G1 X146.732 Y57.809 E.01675
G1 X134.033 Y45.11 E.56361
G1 X133.499 Y45.11 E.01675
G1 X146.732 Y58.343 E.5873
G1 X146.732 Y58.877 E.01675
G1 X132.965 Y45.11 E.61099
G1 X132.431 Y45.11 E.01675
G1 X146.732 Y59.411 E.63467
G1 X146.732 Y59.944 E.01675
G1 X131.898 Y45.11 E.65836
G1 X131.364 Y45.11 E.01675
G1 X146.732 Y60.478 E.68205
G1 X146.732 Y61.012 E.01675
G1 X130.83 Y45.11 E.70574
G1 X130.296 Y45.11 E.01675
G1 X146.732 Y61.546 E.72942
G1 X146.732 Y62.079 E.01675
G1 X129.763 Y45.11 E.75311
G1 X129.229 Y45.11 E.01675
M73 P5 R74
G1 X146.732 Y62.613 E.7768
G1 X146.732 Y63.147 E.01675
G1 X128.695 Y45.11 E.80049
G1 X128.161 Y45.11 E.01675
G1 X146.732 Y63.681 E.82417
G1 X146.732 Y64.214 E.01675
G1 X127.628 Y45.11 E.84786
G1 X127.094 Y45.11 E.01675
G1 X146.732 Y64.748 E.87155
G1 X146.732 Y65.282 E.01675
M73 Q5 S77
G1 X126.56 Y45.11 E.89524
G1 X126.026 Y45.11 E.01675
G1 X146.732 Y65.815 E.91892
G1 X146.732 Y66.349 E.01675
G1 X125.493 Y45.11 E.94261
G1 X124.959 Y45.11 E.01675
G1 X146.732 Y66.883 E.9663
G1 X146.732 Y67.417 E.01675
G1 X124.425 Y45.11 E.98999
G1 X123.891 Y45.11 E.01675
G1 X146.732 Y67.95 E1.01367
G1 X146.732 Y68.484 E.01675
G1 X123.358 Y45.11 E1.03736
G1 X122.824 Y45.11 E.01675
G1 X146.732 Y69.018 E1.06105
G1 X146.732 Y69.552 E.01675
G1 X122.29 Y45.11 E1.08474
G1 X121.757 Y45.11 E.01675
G1 X146.732 Y70.085 E1.10842
G1 X146.732 Y70.619 E.01675
G1 X121.223 Y45.11 E1.13211
G1 X120.689 Y45.11 E.01675
G1 X146.732 Y71.153 E1.1558
G1 X146.732 Y71.687 E.01675
G1 X120.155 Y45.11 E1.17949
G1 X119.622 Y45.11 E.01675
G1 X146.732 Y72.22 E1.20317
G1 X146.732 Y72.754 E.01675
M73 Q5 S76
G1 X119.088 Y45.11 E1.22686
G1 X118.554 Y45.11 E.01675
G1 X146.732 Y73.288 E1.25055
G1 X146.732 Y73.822 E.01675
G1 X118.02 Y45.11 E1.27423
G1 X117.487 Y45.11 E.01675
G1 X146.732 Y74.355 E1.29792
G1 X146.732 Y74.889 E.01675
G1 X116.953 Y45.11 E1.32161
G1 X116.419 Y45.11 E.01675
G1 X146.732 Y75.423 E1.3453
G1 X146.732 Y75.956 E.01675
G1 X115.885 Y45.11 E1.36898
G1 X115.352 Y45.11 E.01675
G1 X146.732 Y76.49 E1.39267
G1 X146.732 Y77.024 E.01675
M73 P6 R74
G1 X114.818 Y45.11 E1.41636
G1 X114.284 Y45.11 E.01675
G1 X146.732 Y77.558 E1.44005
G1 X146.732 Y78.091 E.01675
G1 X113.75 Y45.11 E1.46373
G1 X113.217 Y45.11 E.01675
G1 X146.732 Y78.625 E1.48742
G1 X146.732 Y79.159 E.01675
M73 Q6 S76
G1 X112.683 Y45.11 E1.51111
G1 X112.149 Y45.11 E.01675
M73 P6 R73
G1 X146.732 Y79.693 E1.5348
G1 X146.732 Y80.226 E.01675
G1 X111.616 Y45.11 E1.55848
G1 X111.082 Y45.11 E.01675
G1 X146.732 Y80.76 E1.58217
G1 X146.732 Y81.294 E.01675
G1 X110.548 Y45.11 E1.60586
G1 X110.014 Y45.11 E.01675
G1 X146.732 Y81.828 E1.62955
G1 X146.732 Y82.361 E.01675
G1 X109.481 Y45.11 E1.65323
G1 X108.947 Y45.11 E.01675
G1 X146.732 Y82.895 E1.67692
G1 X146.732 Y83.429 E.01675
G1 X108.413 Y45.11 E1.70061
G1 X107.879 Y45.11 E.01675
G1 X146.732 Y83.963 E1.7243
G1 X146.732 Y84.496 E.01675
G1 X107.346 Y45.11 E1.74798
G1 X106.812 Y45.11 E.01675
G1 X146.732 Y85.03 E1.77167
G1 X146.732 Y85.564 E.01675
G1 X106.278 Y45.11 E1.79536
G1 X105.744 Y45.11 E.01675
M73 Q6 S75
G1 X146.732 Y86.097 E1.81905
G1 X146.732 Y86.631 E.01675
M73 P7 R73
G1 X105.211 Y45.11 E1.84273
G1 X104.677 Y45.11 E.01675
G1 X146.732 Y87.165 E1.86642
G1 X146.732 Y87.699 E.01675
G1 X104.143 Y45.11 E1.89011
G1 X103.609 Y45.11 E.01675
G1 X146.732 Y88.232 E1.9138
G1 X146.732 Y88.766 E.01675
M73 Q7 S75
G1 X103.076 Y45.11 E1.93748
G1 X102.542 Y45.11 E.01675
G1 X146.732 Y89.3 E1.96117
G1 X146.732 Y89.834 E.01675
G1 X102.008 Y45.11 E1.98486
G1 X101.475 Y45.11 E.01675
G1 X146.732 Y90.367 E2.00855
G1 X146.732 Y90.901 E.01675
M73 P7 R72
G1 X100.941 Y45.11 E2.03223
G1 X100.407 Y45.11 E.01675
G1 X146.732 Y91.435 E2.05592
G1 X146.732 Y91.969 E.01675
G1 X99.873 Y45.11 E2.07961
G1 X99.34 Y45.11 E.01675
G1 X146.732 Y92.502 E2.1033
G1 X146.732 Y93.036 E.01675
G1 X98.806 Y45.11 E2.12698
G1 X98.272 Y45.11 E.01675
G1 X146.732 Y93.57 E2.15067
G1 X146.732 Y94.104 E.01675
G1 X98.072 Y45.443 E2.15956
G1 X98.072 Y45.977 E.01675
M73 P8 R72
G1 X146.732 Y94.637 E2.15956
G1 X146.732 Y95.171 E.01675
G1 X98.072 Y46.511 E2.15956
G1 X98.072 Y47.044 E.01675
M73 Q7 S74
G1 X146.732 Y95.705 E2.15956
G1 X146.732 Y96.238 E.01675
M73 Q8 S74
G1 X98.072 Y47.578 E2.15956
G1 X98.072 Y48.112 E.01675
G1 X146.732 Y96.772 E2.15956
G1 X146.732 Y97.306 E.01675
G1 X98.072 Y48.646 E2.15956
G1 X98.072 Y49.179 E.01675
G1 X146.732 Y97.84 E2.15956
G1 X146.732 Y98.373 E.01675
G1 X98.072 Y49.713 E2.15956
G1 X98.072 Y50.247 E.01675
G1 X146.732 Y98.907 E2.15956
G1 X146.732 Y99.441 E.01675
G1 X98.072 Y50.781 E2.15956
G1 X98.072 Y51.314 E.01675
G1 X146.732 Y99.975 E2.15956
G1 X146.732 Y100.508 E.01675
M73 P8 R71
G1 X98.072 Y51.848 E2.15956
G1 X98.072 Y52.382 E.01675
G1 X146.732 Y101.042 E2.15956
G1 X146.732 Y101.576 E.01675
G1 X98.072 Y52.916 E2.15956
G1 X98.072 Y53.449 E.01675
M73 P9 R71
G1 X146.732 Y102.11 E2.15956
G1 X146.732 Y102.643 E.01675
G1 X98.072 Y53.983 E2.15956
G1 X98.072 Y54.517 E.01675
G1 X146.732 Y103.177 E2.15956
G1 X146.732 Y103.711 E.01675
M73 Q9 S74
G1 X98.072 Y55.051 E2.15956
G1 X98.072 Y55.584 E.01675
G1 X146.732 Y104.245 E2.15956
G1 X146.732 Y104.778 E.01675
G1 X98.072 Y56.118 E2.15956
G1 X98.072 Y56.652 E.01675
M73 Q9 S73
G1 X146.732 Y105.312 E2.15956
G1 X146.732 Y105.846 E.01675
G1 X98.072 Y57.185 E2.15956
G1 X98.072 Y57.719 E.01675
G1 X146.732 Y106.379 E2.15956
G1 X146.732 Y106.913 E.01675
G1 X98.072 Y58.253 E2.15956
G1 X98.072 Y58.787 E.01675
G1 X146.732 Y107.447 E2.15956
G1 X146.732 Y107.981 E.01675
G1 X98.072 Y59.32 E2.15956
G1 X98.072 Y59.854 E.01675
G1 X146.732 Y108.514 E2.15956
G1 X146.732 Y109.048 E.01675
M73 P10 R71
G1 X98.072 Y60.388 E2.15956
G1 X98.072 Y60.922 E.01675
M73 P10 R70
G1 X146.732 Y109.582 E2.15956
G1 X146.732 Y110.116 E.01675
G1 X98.072 Y61.455 E2.15956
G1 X98.072 Y61.989 E.01675
G1 X146.732 Y110.649 E2.15956
G1 X146.732 Y111.183 E.01675
M73 Q10 S73
G1 X98.072 Y62.523 E2.15956
G1 X98.072 Y63.057 E.01675
G1 X146.732 Y111.717 E2.15956
G1 X146.732 Y112.251 E.01675
G1 X98.072 Y63.59 E2.15956
G1 X98.072 Y64.124 E.01675
G1 X146.732 Y112.784 E2.15956
G1 X146.732 Y113.318 E.01675
G1 X98.072 Y64.658 E2.15956
G1 X98.072 Y65.192 E.01675
G1 X146.732 Y113.852 E2.15956
G1 X146.732 Y114.386 E.01675
M73 Q10 S72
G1 X98.072 Y65.725 E2.15956
G1 X98.072 Y66.259 E.01675
G1 X146.732 Y114.919 E2.15956
G1 X146.732 Y115.453 E.01675
G1 X98.072 Y66.793 E2.15956
G1 X98.072 Y67.326 E.01675
G1 X146.732 Y115.987 E2.15956
G1 X146.732 Y116.52 E.01675
M73 P11 R70
G1 X98.072 Y67.86 E2.15956
G1 X98.072 Y68.394 E.01675
G1 X146.732 Y117.054 E2.15956
G1 X146.732 Y117.588 E.01675
G1 X98.072 Y68.928 E2.15956
G1 X98.072 Y69.461 E.01675
G1 X146.732 Y118.122 E2.15956
G1 X146.732 Y118.655 E.01675
M73 P11 R69
M73 Q11 S72
G1 X98.072 Y69.995 E2.15956
G1 X98.072 Y70.529 E.01675
G1 X146.732 Y119.189 E2.15956
G1 X146.732 Y119.723 E.01675
G1 X98.072 Y71.063 E2.15956
G1 X98.072 Y71.596 E.01675
G1 X146.732 Y120.257 E2.15956
G1 X146.732 Y120.79 E.01675
G1 X98.072 Y72.13 E2.15956
G1 X98.072 Y72.664 E.01675
G1 X146.732 Y121.324 E2.15956
G1 X146.732 Y121.858 E.01675
G1 X98.072 Y73.198 E2.15956
G1 X98.072 Y73.731 E.01675
G1 X146.732 Y122.392 E2.15956
G1 X146.732 Y122.925 E.01675
G1 X98.072 Y74.265 E2.15956
G1 X98.072 Y74.799 E.01675
M73 Q11 S71
G1 X146.732 Y123.459 E2.15956
G1 X146.732 Y123.993 E.01675
M73 P12 R69
G1 X98.072 Y75.333 E2.15956
G1 X98.072 Y75.866 E.01675
G1 X146.732 Y124.527 E2.15956
G1 X146.732 Y125.06 E.01675
G1 X98.072 Y76.4 E2.15956
G1 X98.072 Y76.934 E.01675
G1 X146.732 Y125.594 E2.15956
G1 X146.732 Y126.128 E.01675
G1 X98.072 Y77.468 E2.15956
G1 X98.072 Y78.001 E.01675
M73 Q12 S71
G1 X146.732 Y126.661 E2.15956
G1 X146.732 Y127.195 E.01675
G1 X98.072 Y78.535 E2.15956
G1 X98.072 Y79.069 E.01675
M73 P12 R68
G1 X146.732 Y127.729 E2.15956
G1 X146.732 Y128.263 E.01675
G1 X98.072 Y79.602 E2.15956
G1 X98.072 Y80.136 E.01675
G1 X146.732 Y128.796 E2.15956
G1 X146.732 Y129.33 E.01675
G1 X98.072 Y80.67 E2.15956
G1 X98.072 Y81.204 E.01675
G1 X146.732 Y129.864 E2.15956
G1 X146.732 Y130.398 E.01675
G1 X98.072 Y81.737 E2.15956
G1 X98.072 Y82.271 E.01675
M73 P13 R68
G1 X146.732 Y130.931 E2.15956
G1 X146.732 Y131.465 E.01675
G1 X98.072 Y82.805 E2.15956
G1 X98.072 Y83.339 E.01675
G1 X146.732 Y131.999 E2.15956
G1 X146.732 Y132.533 E.01675
M73 Q12 S70
G1 X98.072 Y83.872 E2.15956
G1 X98.072 Y84.406 E.01675
G1 X146.732 Y133.066 E2.15956
G1 X146.732 Y133.6 E.01675
G1 X98.072 Y84.94 E2.15956
G1 X98.072 Y85.474 E.01675
M73 Q13 S70
G1 X146.732 Y134.134 E2.15956
G1 X146.732 Y134.668 E.01675
G1 X98.072 Y86.007 E2.15956
G1 X98.072 Y86.541 E.01675
G1 X146.732 Y135.201 E2.15956
G1 X146.732 Y135.735 E.01675
G1 X98.072 Y87.075 E2.15956
G1 X98.072 Y87.609 E.01675
G1 X146.732 Y136.269 E2.15956
