; generated by PrusaSlicer 2.5.2+win64 on 2023-10-31 at 01:27:28 UTC

; 

; external perimeters extrusion width = 0.45mm
; perimeters extrusion width = 0.45mm
; infill extrusion width = 0.45mm
; solid infill extrusion width = 0.45mm
; top infill extrusion width = 0.40mm
; support material extrusion width = 0.35mm
; first layer extrusion width = 0.42mm

; external perimeters extrusion width = 0.45mm
; perimeters extrusion width = 0.45mm
; infill extrusion width = 0.45mm
; solid infill extrusion width = 0.45mm
; top infill extrusion width = 0.40mm
; support material extrusion width = 0.35mm
; first layer extrusion width = 0.42mm

; external perimeters extrusion width = 0.45mm
; perimeters extrusion width = 0.45mm
; infill extrusion width = 0.45mm
; solid infill extrusion width = 0.45mm
; top infill extrusion width = 0.40mm
; support material extrusion width = 0.35mm
; first layer extrusion width = 0.42mm

; external perimeters extrusion width = 0.45mm
; perimeters extrusion width = 0.45mm
; infill extrusion width = 0.45mm
; solid infill extrusion width = 0.45mm
; top infill extrusion width = 0.40mm
; support material extrusion width = 0.35mm
; first layer extrusion width = 0.42mm

; external perimeters extrusion width = 0.45mm
; perimeters extrusion width = 0.45mm
; infill extrusion width = 0.45mm
; solid infill extrusion width = 0.45mm
; top infill extrusion width = 0.40mm
; support material extrusion width = 0.35mm
; first layer extrusion width = 0.42mm

; external perimeters extrusion width = 0.45mm
; perimeters extrusion width = 0.45mm
; infill extrusion width = 0.45mm
; solid infill extrusion width = 0.45mm
; top infill extrusion width = 0.40mm
; support material extrusion width = 0.35mm
; first layer extrusion width = 0.42mm

; external perimeters extrusion width = 0.45mm
; perimeters extrusion width = 0.45mm
; infill extrusion width = 0.45mm
; solid infill extrusion width = 0.45mm
; top infill extrusion width = 0.40mm
; support material extrusion width = 0.35mm
; first layer extrusion width = 0.42mm

; external perimeters extrusion width = 0.45mm
; perimeters extrusion width = 0.45mm
; infill extrusion width = 0.45mm
; solid infill extrusion width = 0.45mm
; top infill extrusion width = 0.40mm
; support material extrusion width = 0.35mm
; first layer extrusion width = 0.42mm

M73 P0 R67
M73 Q0 S67
M107
;TYPE:Custom
M862.3 P "MK3S" ; printer model check
M862.1 P0.4 ; nozzle diameter check
M115 U3.10.0 ; tell printer latest fw version
G90 ; use absolute coordinates
M83 ; extruder relative mode
M104 S215 ; set extruder temp
M140 S60 ; set bed temp
M190 S60 ; wait for bed temp
M109 S215 ; wait for extruder temp
G28 W ; home all without mesh bed level
G80 ; mesh bed leveling
G1 Y-3.0 F1000.0 ; go outside print area
G92 E0.0
G1 X60.0 E9.0 F1000.0 ; intro line
G1 X100.0 E12.5 F1000.0 ; intro line
G92 E0.0
M221 S95

; Don't change E values below. Excessive value can damage the printer.

M907 E538 ; set extruder motor current
G21 ; set units to millimeters
G90 ; use absolute coordinates
M83 ; use relative distances for extrusion
M900 K0.05 ; Filament gcode LA 1.5
M900 K30 ; Filament gcode LA 1.0
M107
;LAYER_CHANGE
;Z:0.2
;HEIGHT:0.2
;BEFORE_LAYER_CHANGE
G92 E0.0
;0.2


G1 E-.8 F2100
G1 Z.4 F10800
;AFTER_LAYER_CHANGE
;0.2
G1 X67.773 Y65.133
G1 Z.2
G1 E.8 F2100
M204 S1000
;TYPE:Skirt/Brim
;WIDTH:0.42
G1 F1200
G1 X68.819 Y64.256 E.04278
G1 X69.758 Y64.063 E.03008
G1 X196.758 Y64.063 E3.982
G1 X198.066 Y64.454 E.04278
M73 P0 R66
G1 X198.942 Y65.5 E.04278
G1 X199.135 Y66.382 E.02832
G1 X200.506 Y123.103 E1.77895
G1 X200.146 Y124.419 E.04278
G1 X199.318 Y125.219 E.0361
G1 X155.324 Y150.619 E1.5928
G1 X154.136 Y150.937 E.03858
G1 X71.13 Y150.937 E2.60259
G1 X69.823 Y150.546 E.04278
G1 X68.946 Y149.5 E.04278
G1 X68.754 Y148.618 E.02832
G1 X67.381 Y91.84 E1.78075
G1 X67.381 Y66.44 E.7964
G1 X67.756 Y65.19 E.0409
; printing object Side_wall.STL id:5 copy 0
;WIPE_START
G1 F8640
G1 X68.819 Y64.256 E-.32671
G1 X69.758 Y64.063 E-.22155
G1 X70.675 Y64.063 E-.21174
;WIPE_END
G1 E-.04 F2100
G1 Z.6 F10800
G1 X166.666 Y128.953
G1 Z.2
G1 E.8 F2100
;TYPE:Perimeter
;WIDTH:0.419999
G1 F1200
G1 X166.808 Y129.08 E.00594
G1 X167.076 Y129.147 E.00867
G1 X175.817 Y129.147 E.27409
G1 X175.947 Y129.132 E.00408
G1 X176.186 Y129.011 E.00842
G1 X178.187 Y127.291 E.08274
G1 X178.345 Y127.069 E.00852
G1 X178.384 Y126.86 E.00668
G1 X178.378 Y124.659 E.06902
G1 X178.346 Y124.474 E.00587
G1 X178.156 Y124.211 E.01018
G1 X177.767 Y123.914 E.01536
G1 X178.721 Y123.947 E.02993
G1 X194.644 Y123.947 E.49925
G1 X195.271 Y123.926 E.01967
G1 X194.719 Y124.221 E.0196
G1 X153.925 Y147.773 E1.47695
G1 X71.917 Y147.773 E2.5713
M73 Q0 S66
G1 X71.917 Y123.947 E.74704
G1 X166.51 Y123.947 E2.9659
G1 X166.51 Y128.582 E.14531
M73 P1 R66
M73 Q1 S66
G1 X166.516 Y128.66 E.00246
G1 X166.621 Y128.913 E.00861
G1 X166.93 Y128.701 F10800
;TYPE:External perimeter
G1 F1200
G1 X167.076 Y128.77 E.00505
G1 X175.817 Y128.77 E.27409
G1 X175.938 Y128.726 E.00404
G1 X177.942 Y127.005 E.08281
G1 X178.007 Y126.861 E.00495
G1 X177.99 Y124.599 E.07095
G1 X177.872 Y124.469 E.00548
G1 X177.44 Y124.14 E.01705
G1 X176.623 Y123.642 E.02999
G1 X176.302 Y123.37 E.01319
G1 X176.7 Y123.37 E.01247
G1 X177.712 Y123.532 E.03215
G1 X178.211 Y123.564 E.01568
G1 X178.719 Y123.57 E.01593
G1 X194.644 Y123.57 E.49932
G1 X195.674 Y123.534 E.03232
G1 X196.654 Y123.37 E.03116
G1 X197.346 Y123.37 E.02169
G1 X196.732 Y123.722 E.02219
G1 X195.793 Y124.075 E.03147
G1 X194.907 Y124.548 E.03148
G1 X154.026 Y148.15 E1.48007
G1 X71.54 Y148.15 E2.58629
G1 X71.54 Y123.57 E.77069
G1 X166.887 Y123.57 E2.98954
G1 X166.887 Y128.582 E.15713
G1 X166.91 Y128.645 E.00211
G1 X166.884 Y128.856 F10800
;WIPE_START
G1 F8640
G1 X167.076 Y128.77 E-.048
G1 X170.159 Y128.77 E-.712
;WIPE_END
G1 E-.04 F2100
G1 Z.6 F10800
G1 X90.829 Y130.736
G1 Z.2
G1 E.8 F2100
;TYPE:Perimeter
G1 F1200
G1 X91.055 Y130.974 E.01029
G1 X91.89 Y132.167 E.04564
G1 X92.554 Y133.571 E.04872
G1 X92.982 Y135.167 E.0518
G1 X93.109 Y136.715 E.04872
G1 X92.965 Y138.263 E.04872
G1 X92.554 Y139.761 E.04872
G1 X91.939 Y141.08 E.04564
G1 X91.055 Y142.358 E.04872
G1 X89.963 Y143.463 E.04872
G1 X88.609 Y144.41 E.0518
G1 X87.198 Y145.059 E.04872
G1 X85.694 Y145.453 E.04872
G1 X84.146 Y145.58 E.04872
G1 X82.599 Y145.436 E.04872
G1 X81.193 Y145.059 E.04564
G1 X79.781 Y144.41 E.04872
G1 X78.503 Y143.526 E.04872
G1 X77.398 Y142.434 E.04872
G1 X76.5 Y141.166 E.04872
G1 X75.836 Y139.761 E.04872
G1 X75.408 Y138.166 E.0518
G1 X75.281 Y136.617 E.04872
G1 X75.425 Y135.07 E.04872
G1 X75.802 Y133.664 E.04564
G1 X76.451 Y132.252 E.04872
G1 X77.335 Y130.974 E.04872
G1 X78.428 Y129.87 E.04872
G1 X79.696 Y128.971 E.04872
G1 X81.1 Y128.307 E.04872
G1 X82.599 Y127.896 E.04872
G1 X84.167 Y127.758 E.04935
G1 X85.791 Y127.896 E.05113
G1 X87.29 Y128.307 E.04872
G1 X88.695 Y128.971 E.04872
G1 X89.887 Y129.806 E.04564
G1 X90.787 Y130.694 E.03963
G1 X90.746 Y131.191 F10800
;TYPE:External perimeter
G1 F1200
G1 X91.598 Y132.411 E.04666
G1 X92.213 Y133.731 E.04564
G1 X92.601 Y135.167 E.04666
G1 X92.733 Y136.65 E.04666
G1 X92.606 Y138.133 E.04666
G1 X92.224 Y139.571 E.04666
G1 X91.598 Y140.921 E.04666
G1 X90.725 Y142.167 E.04769
G1 X89.671 Y143.217 E.04666
G1 X88.45 Y144.069 E.04666
G1 X87.131 Y144.684 E.04564
G1 X85.694 Y145.072 E.04666
G1 X84.212 Y145.204 E.04666
G1 X82.729 Y145.077 E.04666
G1 X81.29 Y144.695 E.04666
G1 X79.94 Y144.069 E.04666
G1 X78.72 Y143.217 E.04666
G1 X77.665 Y142.167 E.04666
G1 X76.809 Y140.949 E.04666
G1 X76.178 Y139.602 E.04666
G1 X75.784 Y138.133 E.04769
G1 X75.657 Y136.65 E.04666
G1 X75.79 Y135.167 E.04666
G1 X76.166 Y133.761 E.04564
G1 X76.793 Y132.411 E.04666
G1 X77.644 Y131.191 E.04666
G1 X78.694 Y130.136 E.04666
G1 X79.912 Y129.28 E.04666
G1 X81.29 Y128.637 E.04769
G1 X82.729 Y128.255 E.04666
G1 X84.137 Y128.134 E.04432
G1 X85.66 Y128.255 E.0479
G1 X87.1 Y128.637 E.04672
G1 X88.45 Y129.264 E.04666
G1 X89.671 Y130.115 E.04666
G1 X90.706 Y131.146 E.04581
G1 X91.14 Y131.122 F10800
;WIPE_START
G1 F8640
G1 X91.598 Y132.411 E-.35738
G1 X92.213 Y133.731 E-.33609
G1 X92.288 Y134.009 E-.06652
;WIPE_END
G1 E-.04 F2100
G1 Z.6 F10800
G1 X193.444 Y124.06
G1 Z.2
G1 E.8 F2100
;TYPE:Solid infill
;WIDTH:0.4207
G1 F1200
G1 X193.806 Y124.422 E.01606
G1 X193.467 Y124.617 E.01229
G1 X193.08 Y124.23 E.01721
G1 X192.546 Y124.23 E.01678
G1 X193.129 Y124.813 E.0259
G1 X192.79 Y125.008 E.01229
G1 X192.011 Y124.23 E.03459
G1 X191.477 Y124.23 E.01678
G1 X192.451 Y125.204 E.04327
G1 X192.112 Y125.399 E.01229
G1 X190.943 Y124.23 E.05196
G1 X190.409 Y124.23 E.01678
G1 X191.774 Y125.595 E.06065
G1 X191.435 Y125.79 E.01229
G1 X189.874 Y124.23 E.06933
G1 X189.34 Y124.23 E.01678
G1 X191.096 Y125.986 E.07802
G1 X190.758 Y126.181 E.01229
G1 X188.806 Y124.23 E.08671
G1 X188.272 Y124.23 E.01678
G1 X190.419 Y126.377 E.0954
G1 X190.08 Y126.573 E.01229
G1 X187.737 Y124.23 E.10408
G1 X187.203 Y124.23 E.01678
G1 X189.742 Y126.768 E.11277
G1 X189.403 Y126.964 E.01229
G1 X186.669 Y124.23 E.12146
G1 X186.134 Y124.23 E.01678
G1 X189.064 Y127.159 E.13015
G1 X188.725 Y127.355 E.01229
G1 X185.6 Y124.23 E.13883
G1 X185.066 Y124.23 E.01678
G1 X188.387 Y127.55 E.14752
G1 X188.048 Y127.746 E.01229
G1 X184.532 Y124.23 E.15621
G1 X183.997 Y124.23 E.01678
G1 X187.709 Y127.941 E.16489
G1 X187.371 Y128.137 E.01229
G1 X183.463 Y124.23 E.17358
G1 X182.929 Y124.23 E.01678
G1 X187.032 Y128.333 E.18227
G1 X186.693 Y128.528 E.01229
G1 X182.395 Y124.23 E.19096
G1 X181.86 Y124.23 E.01678
G1 X186.354 Y128.724 E.19964
G1 X186.016 Y128.919 E.01229
G1 X181.326 Y124.23 E.20833
G1 X180.792 Y124.23 E.01678
G1 X185.677 Y129.115 E.21702
G1 X185.338 Y129.31 E.01229
G1 X180.258 Y124.23 E.22571
G1 X179.723 Y124.23 E.01678
G1 X185 Y129.506 E.23439
G1 X184.661 Y129.701 E.01229
M73 P1 R65
G1 X179.189 Y124.23 E.24308
G1 X178.654 Y124.229 E.0168
G1 X184.322 Y129.897 E.2518
G1 X183.983 Y130.092 E.01229
G1 X178.661 Y124.77 E.23644
G1 X178.663 Y125.306 E.01683
G1 X183.645 Y130.288 E.22133
G1 X183.306 Y130.484 E.01229
G1 X178.664 Y125.842 E.20621
G1 X178.666 Y126.378 E.01683
G1 X182.967 Y130.679 E.19109
G1 X182.629 Y130.875 E.01229
G1 X178.664 Y126.91 E.17614
G1 X178.608 Y127.174 E.00848
G1 X178.533 Y127.314 E.00498
G1 X182.29 Y131.07 E.16689
G1 X181.951 Y131.266 E.01229
G1 X178.274 Y127.589 E.16334
G1 X177.987 Y127.836 E.0119
G1 X181.612 Y131.461 E.16106
G1 X181.274 Y131.657 E.01229
G1 X177.7 Y128.083 E.15878
G1 X177.412 Y128.33 E.0119
G1 X180.935 Y131.852 E.1565
G1 X180.596 Y132.048 E.01229
G1 X177.125 Y128.577 E.15421
G1 X176.838 Y128.824 E.0119
G1 X180.258 Y132.244 E.15193
G1 X179.919 Y132.439 E.01229
G1 X176.55 Y129.07 E.14965
G1 X176.356 Y129.237 E.00803
G1 X176.246 Y129.301 E.004
G1 X179.58 Y132.635 E.14811
G1 X179.241 Y132.83 E.01229
G1 X175.839 Y129.428 E.15116
G1 X175.307 Y129.43 E.01671
G1 X178.903 Y133.026 E.15974
G1 X178.564 Y133.221 E.01229
G1 X174.773 Y129.43 E.16843
G1 X174.238 Y129.43 E.01678
G1 X178.225 Y133.417 E.17711
G1 X177.887 Y133.612 E.01229
G1 X173.704 Y129.43 E.1858
G1 X173.17 Y129.43 E.01678
G1 X177.548 Y133.808 E.19449
G1 X177.209 Y134.004 E.01229
G1 X172.636 Y129.43 E.20317
G1 X172.101 Y129.43 E.01678
G1 X176.871 Y134.199 E.21186
G1 X176.532 Y134.395 E.01229
G1 X171.567 Y129.43 E.22055
G1 X171.033 Y129.43 E.01678
G1 X176.193 Y134.59 E.22924
G1 X175.854 Y134.786 E.01229
M73 Q2 S66
G1 X170.499 Y129.43 E.23792
G1 X169.964 Y129.43 E.01678
G1 X175.516 Y134.981 E.24661
G1 X175.177 Y135.177 E.01229
M73 P2 R65
G1 X169.43 Y129.43 E.2553
G1 X168.896 Y129.43 E.01678
G1 X174.838 Y135.372 E.26398
G1 X174.5 Y135.568 E.01229
G1 X168.362 Y129.43 E.27267
G1 X167.827 Y129.43 E.01678
G1 X174.161 Y135.763 E.28136
G1 X173.822 Y135.959 E.01229
G1 X167.123 Y129.26 E.29758
;WIPE_START
G1 F8640
G1 X169.451 Y131.588 E-.76
;WIPE_END
G1 E-.04 F2100
G1 Z.6 F10800
G1 X165.663 Y124.06
G1 Z.2
G1 E.8 F2100
G1 F1200
G1 X166.228 Y124.625 E.0251
G1 X166.229 Y125.16 E.01681
G1 X165.299 Y124.23 E.04133
G1 X164.764 Y124.23 E.01678
G1 X166.23 Y125.695 E.0651
G1 X166.231 Y126.231 E.01681
G1 X164.23 Y124.23 E.08887
G1 X163.696 Y124.23 E.01678
G1 X166.232 Y126.766 E.11265
G1 X166.232 Y127.301 E.01681
G1 X163.162 Y124.23 E.13642
G1 X162.627 Y124.23 E.01678
G1 X166.233 Y127.836 E.16019
G1 X166.234 Y128.371 E.01681
G1 X162.093 Y124.23 E.18396
G1 X161.559 Y124.23 E.01678
G1 X173.483 Y136.155 E.52974
G1 X173.145 Y136.35 E.01229
G1 X161.025 Y124.23 E.53843
G1 X160.49 Y124.23 E.01678
G1 X172.806 Y136.546 E.54711
G1 X172.467 Y136.741 E.01229
G1 X159.956 Y124.23 E.5558
G1 X159.422 Y124.23 E.01678
G1 X172.129 Y136.937 E.56449
G1 X171.79 Y137.132 E.01229
G1 X158.888 Y124.23 E.57317
G1 X158.353 Y124.23 E.01678
M73 Q2 S65
G1 X171.451 Y137.328 E.58186
G1 X171.112 Y137.523 E.01229
G1 X157.819 Y124.23 E.59055
G1 X157.285 Y124.23 E.01678
G1 X170.774 Y137.719 E.59924
G1 X170.435 Y137.915 E.01229
G1 X156.75 Y124.23 E.60792
G1 X156.216 Y124.23 E.01678
G1 X170.096 Y138.11 E.61661
G1 X169.758 Y138.306 E.01229
G1 X155.682 Y124.23 E.6253
G1 X155.148 Y124.23 E.01678
G1 X169.419 Y138.501 E.63398
G1 X169.08 Y138.697 E.01229
G1 X154.613 Y124.23 E.64267
G1 X154.079 Y124.23 E.01678
G1 X168.741 Y138.892 E.65136
G1 X168.403 Y139.088 E.01229
G1 X153.545 Y124.23 E.66005
G1 X153.011 Y124.23 E.01678
G1 X168.064 Y139.283 E.66873
G1 X167.725 Y139.479 E.01229
G1 X152.476 Y124.23 E.67742
G1 X151.942 Y124.23 E.01678
G1 X167.387 Y139.675 E.68611
G1 X167.048 Y139.87 E.01229
G1 X151.408 Y124.23 E.69479
G1 X150.874 Y124.23 E.01678
G1 X166.709 Y140.066 E.70348
G1 X166.37 Y140.261 E.01229
G1 X150.339 Y124.23 E.71217
G1 X149.805 Y124.23 E.01678
G1 X166.032 Y140.457 E.72086
G1 X165.693 Y140.652 E.01229
G1 X149.271 Y124.23 E.72954
G1 X148.737 Y124.23 E.01678
G1 X165.354 Y140.848 E.73823
G1 X165.016 Y141.043 E.01229
G1 X148.202 Y124.23 E.74692
G1 X147.668 Y124.23 E.01678
G1 X164.677 Y141.239 E.75561
G1 X164.338 Y141.434 E.01229
G1 X147.134 Y124.23 E.76429
G1 X146.599 Y124.23 E.01678
G1 X164 Y141.63 E.77298
G1 X163.661 Y141.826 E.01229
G1 X146.065 Y124.23 E.78167
G1 X145.531 Y124.23 E.01678
G1 X163.322 Y142.021 E.79035
G1 X162.983 Y142.217 E.01229
G1 X144.997 Y124.23 E.79904
G1 X144.462 Y124.23 E.01678
G1 X162.645 Y142.412 E.80773
G1 X162.306 Y142.608 E.01229
M73 P3 R65
M73 Q3 S65
G1 X143.928 Y124.23 E.81642
G1 X143.394 Y124.23 E.01678
G1 X161.967 Y142.803 E.8251
G1 X161.629 Y142.999 E.01229
G1 X142.86 Y124.23 E.83379
G1 X142.325 Y124.23 E.01678
G1 X161.29 Y143.194 E.84248
G1 X160.951 Y143.39 E.01229
G1 X141.791 Y124.23 E.85116
G1 X141.257 Y124.23 E.01678
G1 X160.612 Y143.586 E.85985
G1 X160.274 Y143.781 E.01229
G1 X140.723 Y124.23 E.86854
G1 X140.188 Y124.23 E.01678
G1 X159.935 Y143.977 E.87723
G1 X159.596 Y144.172 E.01229
M73 P3 R64
G1 X139.654 Y124.23 E.88591
G1 X139.12 Y124.23 E.01678
G1 X159.258 Y144.368 E.8946
G1 X158.919 Y144.563 E.01229
G1 X138.586 Y124.23 E.90329
G1 X138.051 Y124.23 E.01678
G1 X158.58 Y144.759 E.91197
G1 X158.241 Y144.954 E.01229
G1 X137.517 Y124.23 E.92066
G1 X136.983 Y124.23 E.01678
G1 X157.903 Y145.15 E.92935
G1 X157.564 Y145.345 E.01229
G1 X136.449 Y124.23 E.93804
G1 X135.914 Y124.23 E.01678
G1 X157.225 Y145.541 E.94672
G1 X156.887 Y145.737 E.01229
G1 X135.38 Y124.23 E.95541
G1 X134.846 Y124.23 E.01678
G1 X156.548 Y145.932 E.9641
G1 X156.209 Y146.128 E.01229
G1 X134.311 Y124.23 E.97278
G1 X133.777 Y124.23 E.01678
G1 X155.87 Y146.323 E.98147
G1 X155.532 Y146.519 E.01229
M73 Q3 S64
G1 X133.243 Y124.23 E.99016
G1 X132.709 Y124.23 E.01678
G1 X155.193 Y146.714 E.99885
G1 X154.854 Y146.91 E.01229
G1 X132.174 Y124.23 E1.00753
G1 X131.64 Y124.23 E.01678
G1 X154.516 Y147.105 E1.01622
G1 X154.177 Y147.301 E.01229
G1 X131.106 Y124.23 E1.02491
G1 X130.572 Y124.23 E.01678
G1 X153.832 Y147.49 E1.03331
G1 X153.298 Y147.49 E.01678
G1 X130.037 Y124.23 E1.03331
G1 X129.503 Y124.23 E.01678
M73 P4 R64
M73 Q4 S64
G1 X152.763 Y147.49 E1.03331
G1 X152.229 Y147.49 E.01678
G1 X128.969 Y124.23 E1.03331
G1 X128.435 Y124.23 E.01678
G1 X151.695 Y147.49 E1.03331
G1 X151.161 Y147.49 E.01678
G1 X127.9 Y124.23 E1.03331
G1 X127.366 Y124.23 E.01678
G1 X150.626 Y147.49 E1.03331
G1 X150.092 Y147.49 E.01678
